;Generated with Cura_SteamEngine 14.09
M140 S0
M109 TO S0
M190 S0
M109 S235
G0 Z10
G21
G28 X0
G28 Y0
G0 X80 Y68
G30
G32
G0 X-27
G0 Y-25
G92 X0 Y0
G92 Z5.2
G0 Z0
;main sequence
G92 E0 ; reset extruder
G1 Z0 F70
M300 S1567 P250
M300 S2067 P250
;Layer count: 92
;LAYER:0
M107
G0 F3600 X81.658 Y67.232 Z0.300
;TYPE:SKIRT
G1 F1500 X81.658 Y135.391 E5.10070
G1 X118.342 Y135.391 E7.84596
G1 X118.342 Y67.232 E12.94666
G1 X81.658 Y67.232 E15.69192
G0 F3600 X81.058 Y66.632
G1 F1500 X81.058 Y135.991 E20.88242
G1 X118.942 Y135.991 E23.71748
G1 X118.942 Y66.632 E28.90798
G1 X81.058 Y66.632 E31.74304
G0 F3600 X80.458 Y66.032
G1 F1500 X80.458 Y136.591 E37.02334
G1 X119.542 Y136.591 E39.94821
G1 X119.542 Y66.032 E45.22851
G1 X80.458 Y66.032 E48.15337
G0 F3600 X79.858 Y65.432
G1 F1500 X79.858 Y137.191 E53.52348
G1 X120.142 Y137.191 E56.53815
G1 X120.142 Y65.432 E61.90825
G1 X79.858 Y65.432 E64.92292
G0 F3600 X79.258 Y64.832
G1 F1500 X79.258 Y137.791 E70.38283
G1 X120.742 Y137.791 E73.48730
G1 X120.742 Y64.832 E78.94720
G1 X79.258 Y64.832 E82.05167
G0 F3600 X78.658 Y64.232
G1 F1500 X78.658 Y138.391 E87.60138
G1 X121.342 Y138.391 E90.79565
G1 X121.342 Y64.232 E96.34536
G1 X78.658 Y64.232 E99.53964
G0 F3600 X78.058 Y63.632
G1 F1500 X78.058 Y138.991 E105.17915
G1 X121.942 Y138.991 E108.46322
G1 X121.942 Y63.632 E114.10273
G1 X78.058 Y63.632 E117.38681
G0 F3600 X77.458 Y63.032
G1 F1500 X77.458 Y139.591 E123.11612
G1 X122.542 Y139.591 E126.49000
G1 X122.542 Y63.032 E132.21931
G1 X77.458 Y63.032 E135.59319
G0 F3600 X76.858 Y62.432
G1 F1500 X76.858 Y140.191 E141.41231
G1 X123.142 Y140.191 E144.87598
G1 X123.142 Y62.432 E150.69510
G1 X76.858 Y62.432 E154.15878
G0 F3600 X76.258 Y61.832
G1 F1500 X76.258 Y140.791 E160.06770
G1 X123.742 Y140.791 E163.62118
G1 X123.742 Y61.832 E169.53010
G1 X76.258 Y61.832 E173.08358
G0 F3600 X71.699 Y58.368
G1 F1500 X128.301 Y58.368 E177.31941
G1 X128.787 Y58.854 E177.37084
G1 X128.914 Y58.984 E177.38444
G1 X128.914 Y143.395 E183.70137
G1 X128.097 Y144.014 E183.77807
G1 X71.905 Y144.014 E187.98322
G1 X71.768 Y143.912 E187.99600
G1 X71.086 Y143.395 E188.06005
G1 X71.086 Y58.982 E194.37712
G1 X71.699 Y58.368 E194.44205
G0 F3600 X71.450 Y57.768
G1 F1500 X128.550 Y57.768 E198.71514
G1 X129.214 Y58.433 E198.78547
G1 X129.514 Y58.740 E198.81759
G1 X129.514 Y143.693 E205.17508
G1 X128.298 Y144.614 E205.28923
G1 X71.705 Y144.614 E209.52438
G1 X71.407 Y144.391 E209.55224
G1 X70.486 Y143.694 E209.63867
G1 X70.486 Y58.734 E215.99668
G1 X71.450 Y57.768 E216.09881
G0 F3600 X71.201 Y57.168
G1 F1500 X128.798 Y57.168 E220.40910
G1 X129.641 Y58.011 E220.49832
G1 X130.114 Y58.495 E220.54896
G1 X130.114 Y143.992 E226.94716
G1 X128.500 Y145.214 E227.09865
G1 X71.505 Y145.214 E231.36389
G1 X71.046 Y144.870 E231.40682
G1 X69.886 Y143.992 E231.51569
G1 X69.886 Y58.486 E237.91456
G1 X71.201 Y57.168 E238.05389
G0 F3600 X70.952 Y56.568
G1 F1500 X129.047 Y56.568 E242.40144
G1 X130.068 Y57.589 E242.50950
G1 X130.714 Y58.251 E242.57872
G1 X130.714 Y144.290 E249.01747
G1 X128.701 Y145.814 E249.20642
G1 X71.305 Y145.814 E253.50167
G1 X70.685 Y145.349 E253.55966
G1 X69.286 Y144.290 E253.69097
G1 X69.286 Y58.238 E260.13070
G1 X70.952 Y56.568 E260.30723
G0 F3600 X70.703 Y55.968
G1 F1500 X129.296 Y55.968 E264.69205
G1 X130.495 Y57.168 E264.81900
G1 X131.314 Y58.007 E264.90674
G1 X131.314 Y144.588 E271.38606
G1 X128.903 Y146.414 E271.61239
G1 X71.105 Y146.414 E275.93772
G1 X70.324 Y145.829 E276.01075
G1 X68.686 Y144.589 E276.16449
G1 X68.686 Y57.989 E282.64523
G1 X70.703 Y55.968 E282.85890
G0 F3600 X70.454 Y55.368
G1 F1500 X129.544 Y55.368 E287.28092
G1 X130.922 Y56.746 E287.42676
G1 X131.914 Y57.763 E287.53308
G1 X131.914 Y144.886 E294.05295
G1 X129.105 Y147.014 E294.31668
G1 X70.905 Y147.014 E298.67209
G1 X69.963 Y146.308 E298.76019
G1 X68.086 Y144.887 E298.93637
G1 X68.086 Y57.741 E305.45796
G1 X70.454 Y55.368 E305.70884
G0 F3600 X70.205 Y54.768
G1 F1500 X129.793 Y54.768 E310.16813
G1 X131.349 Y56.324 E310.33280
G1 X132.514 Y57.519 E310.45770
G1 X132.514 Y145.185 E317.01821
G1 X129.306 Y147.614 E317.31933
G1 X70.705 Y147.614 E321.70476
G1 X69.602 Y146.787 E321.80793
G1 X67.486 Y145.186 E322.00650
G1 X67.486 Y57.493 E328.56903
G1 X70.205 Y54.768 E328.85711
G0 F3600 X69.956 Y54.168
G1 F1500 X130.041 Y54.168 E333.35359
G1 X131.776 Y55.903 E333.53721
G1 X133.114 Y57.274 E333.68057
G1 X133.114 Y145.483 E340.28171
G1 X129.508 Y148.214 E340.62023
G1 X70.505 Y148.214 E345.03574
G1 X69.241 Y147.266 E345.15398
G1 X66.886 Y145.484 E345.37498
G1 X66.886 Y57.245 E351.97837
G1 X69.956 Y54.168 E352.30365
G0 F3600 X69.707 Y53.568
G1 F1500 X77.345 Y53.569 E352.87524
G1 X130.289 Y53.568 E356.83732
G1 X132.203 Y55.481 E357.03984
G1 X133.714 Y57.030 E357.20177
G1 X133.714 Y145.781 E363.84348
G1 X129.709 Y148.814 E364.21944
G1 X70.305 Y148.814 E368.66496
G1 X68.880 Y147.745 E368.79827
G1 X66.286 Y145.782 E369.04171
G1 X66.286 Y56.997 E375.68596
G1 X69.707 Y53.568 E376.04844
G0 F3600 X69.459 Y52.968
G1 F1500 X77.345 Y52.969 E376.63859
G1 X130.538 Y52.968 E380.61931
G1 X132.629 Y55.059 E380.84061
G1 X134.314 Y56.786 E381.02117
G1 X134.314 Y146.079 E387.70344
G1 X129.911 Y149.414 E388.11679
G1 X70.105 Y149.414 E392.59239
G1 X68.519 Y148.225 E392.74073
G1 X65.686 Y146.081 E393.00661
G1 X65.686 Y56.749 E399.69179
G1 X69.459 Y52.968 E400.09152
G1 F3000 E394.09152
G0 F3600 X73.486 Y60.768
;TYPE:WALL-INNER
G1 F3000 E400.09152
G1 F1500 X73.858 Y60.768 E400.11936
G1 X73.858 Y141.614 E406.16950
G1 X73.486 Y141.614 E406.19734
G1 X73.486 Y60.768 E412.24747
G0 F3600 X126.142 Y60.768
G1 F1500 X126.514 Y60.768 E412.27531
G1 X126.514 Y141.614 E418.32545
G1 X126.142 Y141.614 E418.35328
G1 X126.142 Y60.768 E424.40342
G0 F3600 X125.542 Y60.168
G1 F1500 X127.114 Y60.168 E424.52106
G1 X127.114 Y142.214 E430.66100
G1 X125.542 Y142.214 E430.77864
G1 X125.542 Y60.168 E436.91858
G0 F3600 X74.458 Y60.168
G1 F1500 X74.458 Y142.214 E443.05851
G1 X72.886 Y142.214 E443.17615
G1 X72.886 Y60.168 E449.31609
G1 X74.458 Y60.168 E449.43373
G0 F3600 X75.058 Y60.632
G1 F1500 X75.058 Y141.991 E455.52226
G1 X124.942 Y141.991 E459.25534
G1 X124.942 Y60.632 E465.34387
G1 X75.058 Y60.632 E469.07695
G0 F3600 X72.286 Y59.568
G1 F1500 X127.714 Y59.568 E473.22492
G1 X127.714 Y142.799 E479.45354
G1 X127.695 Y142.814 E479.45535
G1 X72.307 Y142.814 E483.60033
G1 X72.286 Y142.798 E483.60231
G1 X72.286 Y59.568 E489.83085
G0 F3600 X71.686 Y59.230
;TYPE:WALL-OUTER
G1 F1500 X71.947 Y58.968 E489.85852
G1 X128.053 Y58.968 E494.05723
G1 X128.314 Y59.229 E494.08486
G1 X128.314 Y143.097 E500.36114
G1 X127.896 Y143.414 E500.40040
G1 X72.105 Y143.414 E504.57554
G1 X71.686 Y143.097 E504.61486
G1 X71.686 Y59.230 E510.89107
G0 F3600 X72.064 Y59.418
G0 X75.658 Y60.832
G0 X75.658 Y61.232
G1 F1500 X75.658 Y141.391 E516.88979
G1 X124.342 Y141.391 E520.53308
G1 X124.342 Y61.232 E526.53180
G1 X75.658 Y61.232 E530.17508
G0 F3600 X75.658 Y60.132
;LAYER:1
M106 S127
G0 X74.558 Y60.132 Z0.500
;TYPE:WALL-INNER
G1 F1500 X74.558 Y142.314 E532.90846
G1 X72.586 Y142.314 E532.97405
G1 X72.586 Y59.828 E535.71755
G1 X127.414 Y59.828 E537.54114
G1 X127.414 Y142.314 E540.28463
G1 X125.442 Y142.314 E540.35022
G1 X125.442 Y60.132 E543.08360
G1 X74.558 Y60.132 E544.77601
G0 F3600 X74.958 Y60.532
G1 F1500 X74.958 Y142.091 E547.48868
G1 X125.042 Y142.091 E549.15448
G1 X125.042 Y60.532 E551.86714
G1 X74.958 Y60.532 E553.53294
G0 F3600 X72.186 Y59.428
G1 F1500 X127.814 Y59.428 E555.38314
G1 X127.814 Y142.714 E558.15324
G1 X72.186 Y142.714 E560.00343
G1 X72.186 Y59.428 E562.77354
G0 F3600 X71.786 Y59.115
G1 F1500 X71.872 Y59.028 E562.77761
G1 X128.129 Y59.028 E564.64872
G1 X128.214 Y59.113 E564.65272
G1 X128.214 Y142.948 E567.44108
G1 X127.995 Y143.114 E567.45022
G1 X72.007 Y143.114 E569.31239
G1 X71.786 Y142.947 E569.32161
G1 X71.786 Y59.115 E572.10987
G0 F3600 X75.358 Y60.932
G1 F1500 X75.358 Y141.691 E574.79592
G1 X124.642 Y141.691 E576.43512
G1 X124.642 Y60.932 E579.12117
G1 X75.358 Y60.932 E580.76036
G0 F3600 X75.758 Y61.332
;TYPE:WALL-OUTER
G1 F1500 X75.758 Y141.291 E583.41981
G1 X124.242 Y141.291 E585.03240
G1 X124.242 Y61.332 E587.69184
G1 X75.758 Y61.332 E589.30443
G0 F3600 X75.758 Y61.032
G0 X71.799 Y58.928
G0 X71.706 Y58.628
G1 F1500 X128.295 Y58.628 E591.18659
G1 X128.593 Y58.926 E591.20060
G1 X128.614 Y58.948 E591.20161
G1 X128.614 Y143.147 E594.00208
G1 X128.129 Y143.514 E594.02231
G1 X71.873 Y143.514 E595.89340
G1 X71.386 Y143.146 E595.91370
G1 X71.386 Y58.949 E598.71410
G1 X71.706 Y58.628 E598.72918
G0 F3600 X71.799 Y58.928
G0 X72.725 Y60.492
;TYPE:FILL
G1 F1680 X73.251 Y59.967 E598.75389
G0 F3600 X72.725 Y61.058
G1 F1680 X73.816 Y59.967 E598.80521
G0 F3600 X72.725 Y61.624
G1 F1680 X74.382 Y59.967 E598.88315
G0 F3600 X74.417 Y60.498
G1 F1680 X72.725 Y62.190 E598.96274
G0 F3600 X72.725 Y62.755
G1 F1680 X74.417 Y61.064 E599.04230
G0 F3600 X74.417 Y61.630
G1 F1680 X72.725 Y63.321 E599.12186
G0 F3600 X72.725 Y63.887
G1 F1680 X74.417 Y62.195 E599.20145
G0 F3600 X74.417 Y62.761
G1 F1680 X72.725 Y64.452 E599.28101
G0 F3600 X72.725 Y65.018
G1 F1680 X74.417 Y63.327 E599.36058
G0 F3600 X74.417 Y63.892
G1 F1680 X72.725 Y65.584 E599.44016
G0 F3600 X72.725 Y66.149
G1 F1680 X74.417 Y64.458 E599.51973
G0 F3600 X74.417 Y65.024
G1 F1680 X72.725 Y66.715 E599.59929
G0 F3600 X72.725 Y67.281
G1 F1680 X74.417 Y65.589 E599.67888
G0 F3600 X74.417 Y66.155
G1 F1680 X72.725 Y67.846 E599.75844
G0 F3600 X72.725 Y68.412
G1 F1680 X74.417 Y66.721 E599.83800
G0 F3600 X74.417 Y67.286
G1 F1680 X72.725 Y68.978 E599.91759
G0 F3600 X72.725 Y69.543
G1 F1680 X74.417 Y67.852 E599.99715
G0 F3600 X74.417 Y68.418
G1 F1680 X72.725 Y70.109 E600.07671
G0 F3600 X72.725 Y70.675
G1 F1680 X74.417 Y68.983 E600.15630
G0 F3600 X74.417 Y69.549
G1 F1680 X72.725 Y71.241 E600.23589
G0 F3600 X72.725 Y71.806
G1 F1680 X74.417 Y70.115 E600.31545
G0 F3600 X74.417 Y70.680
G1 F1680 X72.725 Y72.372 E600.39504
G0 F3600 X72.725 Y72.938
G1 F1680 X74.417 Y71.246 E600.47462
G0 F3600 X74.417 Y71.812
G1 F1680 X72.725 Y73.503 E600.55419
G0 F3600 X72.725 Y74.069
G1 F1680 X74.417 Y72.378 E600.63375
G0 F3600 X74.417 Y72.943
G1 F1680 X72.725 Y74.635 E600.71334
G0 F3600 X72.725 Y75.200
G1 F1680 X74.417 Y73.509 E600.79290
G0 F3600 X74.417 Y74.075
G1 F1680 X72.725 Y75.766 E600.87246
G0 F3600 X72.725 Y76.332
G1 F1680 X74.417 Y74.640 E600.95205
G0 F3600 X74.417 Y75.206
G1 F1680 X72.725 Y76.897 E601.03161
G0 F3600 X72.725 Y77.463
G1 F1680 X74.417 Y75.772 E601.11117
G0 F3600 X74.417 Y76.337
G1 F1680 X72.725 Y78.029 E601.19076
G0 F3600 X72.725 Y78.594
G1 F1680 X74.417 Y76.903 E601.27032
G0 F3600 X74.417 Y77.469
G1 F1680 X72.725 Y79.160 E601.34989
G0 F3600 X72.725 Y79.726
G1 F1680 X74.417 Y78.034 E601.42947
G0 F3600 X74.417 Y78.600
G1 F1680 X72.725 Y80.291 E601.50904
G0 F3600 X72.725 Y80.857
G1 F1680 X74.417 Y79.166 E601.58860
G0 F3600 X74.417 Y79.731
G1 F1680 X72.725 Y81.423 E601.66819
G0 F3600 X72.725 Y81.989
G1 F1680 X74.417 Y80.297 E601.74777
G0 F3600 X74.417 Y80.863
G1 F1680 X72.725 Y82.554 E601.82733
G0 F3600 X72.725 Y83.120
G1 F1680 X74.417 Y81.429 E601.90690
G0 F3600 X74.417 Y81.994
G1 F1680 X72.725 Y83.686 E601.98648
G0 F3600 X72.725 Y84.251
G1 F1680 X74.417 Y82.560 E602.06605
G0 F3600 X74.417 Y83.126
G1 F1680 X72.725 Y84.817 E602.14561
G0 F3600 X72.725 Y85.383
G1 F1680 X74.417 Y83.691 E602.22520
G0 F3600 X74.417 Y84.257
G1 F1680 X72.725 Y85.948 E602.30476
G0 F3600 X72.725 Y86.514
G1 F1680 X74.417 Y84.823 E602.38432
G0 F3600 X74.417 Y85.388
G1 F1680 X72.725 Y87.080 E602.46391
G0 F3600 X72.725 Y87.645
G1 F1680 X74.417 Y85.954 E602.54347
G0 F3600 X74.417 Y86.520
G1 F1680 X72.725 Y88.211 E602.62304
G0 F3600 X72.725 Y88.777
G1 F1680 X74.417 Y87.085 E602.70262
G0 F3600 X74.417 Y87.651
G1 F1680 X72.725 Y89.342 E602.78218
G0 F3600 X72.725 Y89.908
G1 F1680 X74.417 Y88.217 E602.86175
G0 F3600 X74.417 Y88.782
G1 F1680 X72.725 Y90.474 E602.94133
G0 F3600 X72.725 Y91.039
G1 F1680 X74.417 Y89.348 E603.02090
G0 F3600 X74.417 Y89.914
G1 F1680 X72.725 Y91.605 E603.10046
G0 F3600 X72.725 Y92.171
G1 F1680 X74.417 Y90.479 E603.18005
G0 F3600 X74.417 Y91.045
G1 F1680 X72.725 Y92.737 E603.25963
G0 F3600 X72.725 Y93.302
G1 F1680 X74.417 Y91.611 E603.33920
G0 F3600 X74.417 Y92.177
G1 F1680 X72.725 Y93.868 E603.41876
G0 F3600 X72.725 Y94.434
G1 F1680 X74.417 Y92.742 E603.49835
G0 F3600 X74.417 Y93.308
G1 F1680 X72.725 Y94.999 E603.57791
G0 F3600 X72.725 Y95.565
G1 F1680 X74.417 Y93.874 E603.65747
G0 F3600 X74.417 Y94.439
G1 F1680 X72.725 Y96.131 E603.73706
G0 F3600 X72.725 Y96.696
G1 F1680 X74.417 Y95.005 E603.81662
G0 F3600 X74.417 Y95.571
G1 F1680 X72.725 Y97.262 E603.89618
G0 F3600 X72.725 Y97.828
G1 F1680 X74.417 Y96.136 E603.97577
G0 F3600 X74.417 Y96.702
G1 F1680 X72.725 Y98.393 E604.05533
G0 F3600 X72.725 Y98.959
G1 F1680 X74.417 Y97.268 E604.13490
G0 F3600 X74.417 Y97.833
G1 F1680 X72.725 Y99.525 E604.21448
G0 F3600 X72.725 Y100.090
G1 F1680 X74.417 Y98.399 E604.29405
G0 F3600 X74.417 Y98.965
G1 F1680 X72.725 Y100.656 E604.37361
G0 F3600 X72.725 Y101.222
G1 F1680 X74.417 Y99.530 E604.45320
G0 F3600 X74.417 Y100.096
G1 F1680 X72.725 Y101.788 E604.53278
G0 F3600 X72.725 Y102.353
G1 F1680 X74.417 Y100.662 E604.61234
G0 F3600 X74.417 Y101.227
G1 F1680 X72.725 Y102.919 E604.69193
G0 F3600 X72.725 Y103.485
G1 F1680 X74.417 Y101.793 E604.77152
G0 F3600 X74.417 Y102.359
G1 F1680 X72.725 Y104.050 E604.85108
G0 F3600 X72.725 Y104.616
G1 F1680 X74.417 Y102.925 E604.93064
G0 F3600 X74.417 Y103.490
G1 F1680 X72.725 Y105.182 E605.01023
G0 F3600 X72.725 Y105.747
G1 F1680 X74.417 Y104.056 E605.08979
G0 F3600 X74.417 Y104.622
G1 F1680 X72.725 Y106.313 E605.16936
G0 F3600 X72.725 Y106.879
G1 F1680 X74.417 Y105.187 E605.24894
G0 F3600 X74.417 Y105.753
G1 F1680 X72.725 Y107.444 E605.32851
G0 F3600 X72.725 Y108.010
G1 F1680 X74.417 Y106.319 E605.40807
G0 F3600 X74.417 Y106.884
G1 F1680 X72.725 Y108.576 E605.48765
G0 F3600 X72.725 Y109.141
G1 F1680 X74.417 Y107.450 E605.56722
G0 F3600 X74.417 Y108.016
G1 F1680 X72.725 Y109.707 E605.64678
G0 F3600 X72.725 Y110.273
G1 F1680 X74.417 Y108.581 E605.72637
G0 F3600 X74.417 Y109.147
G1 F1680 X72.725 Y110.838 E605.80593
G0 F3600 X72.725 Y111.404
G1 F1680 X74.417 Y109.713 E605.88549
G0 F3600 X74.417 Y110.278
G1 F1680 X72.725 Y111.970 E605.96508
G0 F3600 X72.725 Y112.536
G1 F1680 X74.417 Y110.844 E606.04467
G0 F3600 X74.417 Y111.410
G1 F1680 X72.725 Y113.101 E606.12423
G0 F3600 X72.725 Y113.667
G1 F1680 X74.417 Y111.976 E606.20379
G0 F3600 X74.417 Y112.541
G1 F1680 X72.725 Y114.233 E606.28338
G0 F3600 X72.725 Y114.798
G1 F1680 X74.417 Y113.107 E606.36294
G0 F3600 X74.417 Y113.673
G1 F1680 X72.725 Y115.364 E606.44250
G0 F3600 X72.725 Y115.930
G1 F1680 X74.417 Y114.238 E606.52209
G0 F3600 X74.417 Y114.804
G1 F1680 X72.725 Y116.495 E606.60165
G0 F3600 X72.725 Y117.061
G1 F1680 X74.417 Y115.370 E606.68122
G0 F3600 X74.417 Y115.935
G1 F1680 X72.725 Y117.627 E606.76080
G0 F3600 X72.725 Y118.192
G1 F1680 X74.417 Y116.501 E606.84037
G0 F3600 X74.417 Y117.067
G1 F1680 X72.725 Y118.758 E606.91993
G0 F3600 X72.725 Y119.324
G1 F1680 X74.417 Y117.632 E606.99952
G0 F3600 X74.417 Y118.198
G1 F1680 X72.725 Y119.889 E607.07908
G0 F3600 X72.725 Y120.455
G1 F1680 X74.417 Y118.764 E607.15864
G0 F3600 X74.417 Y119.329
G1 F1680 X72.725 Y121.021 E607.23823
G0 F3600 X72.725 Y121.587
G1 F1680 X74.417 Y119.895 E607.31782
G0 F3600 X74.417 Y120.461
G1 F1680 X72.725 Y122.152 E607.39738
G0 F3600 X72.725 Y122.718
G1 F1680 X74.417 Y121.026 E607.47696
G0 F3600 X74.417 Y121.592
G1 F1680 X72.725 Y123.284 E607.55655
G0 F3600 X72.725 Y123.849
G1 F1680 X74.417 Y122.158 E607.63611
