;FLAVOR:Marlin
;TIME:6666
;Filament used: 0m
;Layer height: 0.1
;MINX:2.14748e+06
;MINY:2.14748e+06
;MINZ:2.14748e+06
;MAXX:-2.14748e+06
;MAXY:-2.14748e+06
;MAXZ:-2.14748e+06

;Generated with Cura_SteamEngine master
M104 S215
M105
M109 S215
M82 ;absolute extrusion mode
G28 ;Home
G1 Z15.0 F6000 ;Move the platform down 15mm
;Prime the extruder
G92 E0
G1 F200 E3
G92 E0
G92 E0
G92 E0
G1 F1500 E-6.5
;LAYER_COUNT:83
;LAYER:0
M107
G0 F3600 X42.3 Y41.654 Z0.3
;TYPE:SKIRT
G1 F1500 E0
G1 F1800 X42.647 Y41.349 E0.00869
G1 X43.454 Y40.728 E0.02784
G1 X43.842 Y40.468 E0.03663
G1 X44.716 Y39.962 E0.05563
G1 X45.137 Y39.753 E0.06447
G1 X46.099 Y39.353 E0.08407
G1 X46.547 Y39.201 E0.09297
G1 X47.508 Y38.942 E0.11169
G1 X47.988 Y38.845 E0.1209
G1 X49.033 Y38.706 E0.14073
G1 X49.531 Y38.674 E0.15012
G1 X50.53 Y38.674 E0.16891
G1 X51.029 Y38.706 E0.17831
G1 X52.078 Y38.845 E0.19822
G1 X52.557 Y38.942 E0.20741
G1 X53.51 Y39.199 E0.22598
G1 X53.959 Y39.351 E0.23489
G1 X54.933 Y39.756 E0.25474
G1 X55.353 Y39.965 E0.26356
G1 X56.22 Y40.468 E0.28242
G1 X56.608 Y40.728 E0.2912
G1 X57.405 Y41.34 E0.3101
G1 X57.751 Y41.643 E0.31876
G1 X58.478 Y42.37 E0.3381
G1 X58.783 Y42.718 E0.3468
G1 X59.394 Y43.513 E0.36566
G1 X59.653 Y43.899 E0.3744
G1 X60.156 Y44.763 E0.39321
G1 X60.365 Y45.182 E0.40202
G1 X60.768 Y46.148 E0.42171
G1 X60.922 Y46.6 E0.43069
G1 X61.187 Y47.583 E0.44984
G1 X61.283 Y48.062 E0.45903
G1 X61.419 Y49.095 E0.47863
G1 X61.451 Y49.593 E0.48802
G1 X61.451 Y50.591 E0.50679
G1 X61.419 Y51.091 E0.51621
G1 X61.283 Y52.126 E0.53585
G1 X61.187 Y52.605 E0.54504
G1 X60.92 Y53.593 E0.56429
G1 X60.767 Y54.041 E0.5732
G1 X60.372 Y54.988 E0.5925
G1 X60.163 Y55.409 E0.60134
G1 X59.657 Y56.283 E0.62033
G1 X59.397 Y56.671 E0.62912
G1 X58.778 Y57.476 E0.64822
G1 X58.475 Y57.821 E0.65686
G1 X57.765 Y58.532 E0.67576
G1 X57.417 Y58.838 E0.68448
G1 X56.608 Y59.46 E0.70367
G1 X56.22 Y59.72 E0.71246
G1 X55.307 Y60.246 E0.73228
G1 X54.992 Y60.403 E0.7389
G1 X53.959 Y60.837 E0.75998
G1 X53.51 Y60.989 E0.76889
G1 X52.542 Y61.249 E0.78775
G1 X52.063 Y61.345 E0.79694
G1 X51.045 Y61.48 E0.81625
G1 X50.546 Y61.513 E0.82566
G1 X49.515 Y61.513 E0.84505
G1 X49.017 Y61.48 E0.85444
G1 X48.003 Y61.346 E0.87368
G1 X47.523 Y61.25 E0.88289
G1 X46.547 Y60.987 E0.9019
G1 X46.099 Y60.835 E0.9108
G1 X45.137 Y60.435 E0.9304
G1 X44.716 Y60.226 E0.93924
G1 X43.803 Y59.693 E0.95913
G1 X43.505 Y59.493 E0.96588
G1 X42.637 Y58.83 E0.98642
G1 X42.29 Y58.524 E0.99513
G1 X41.588 Y57.821 E1.01381
G1 X41.285 Y57.476 E1.02245
G1 X40.674 Y56.683 E1.04128
G1 X40.413 Y56.295 E1.05008
G1 X39.873 Y55.358 E1.07042
G1 X39.722 Y55.054 E1.07681
G1 X39.29 Y54.026 E1.09778
G1 X39.138 Y53.578 E1.10668
G1 X38.876 Y52.605 E1.12564
G1 X38.78 Y52.126 E1.13483
G1 X38.645 Y51.109 E1.15412
G1 X38.612 Y50.611 E1.16351
G1 X38.612 Y49.581 E1.18289
G1 X38.645 Y49.081 E1.19231
G1 X38.78 Y48.062 E1.21165
G1 X38.876 Y47.583 E1.22084
G1 X39.136 Y46.615 E1.23969
G1 X39.288 Y46.166 E1.24861
G1 X39.693 Y45.192 E1.26845
G1 X39.902 Y44.772 E1.27727
G1 X40.413 Y43.893 E1.2964
G1 X40.674 Y43.505 E1.3052
G1 X41.278 Y42.72 E1.32383
G1 X41.581 Y42.374 E1.33248
G1 X42.3 Y41.654 E1.35162
G0 F3600 X42.564 Y41.955
G1 F1800 X42.911 Y41.65 E1.36031
G1 X43.677 Y41.061 E1.37849
G1 X44.065 Y40.801 E1.38727
G1 X44.894 Y40.32 E1.4053
G1 X45.315 Y40.111 E1.41414
G1 X46.227 Y39.731 E1.43273
G1 X46.675 Y39.579 E1.44163
G1 X47.587 Y39.334 E1.45939
G1 X48.067 Y39.237 E1.4686
G1 X49.058 Y39.105 E1.48741
G1 X49.556 Y39.073 E1.49679
G1 X50.505 Y39.073 E1.51464
G1 X51.004 Y39.105 E1.52405
G1 X51.999 Y39.237 E1.54293
G1 X52.478 Y39.334 E1.55212
G1 X53.382 Y39.578 E1.56974
G1 X53.831 Y39.73 E1.57865
G1 X54.755 Y40.114 E1.59748
G1 X55.175 Y40.323 E1.6063
G1 X55.997 Y40.801 E1.62419
G1 X56.385 Y41.061 E1.63297
G1 X57.141 Y41.641 E1.6509
G1 X57.487 Y41.944 E1.65955
G1 X58.177 Y42.634 E1.6779
G1 X58.482 Y42.982 E1.68661
G1 X59.062 Y43.736 E1.7045
G1 X59.321 Y44.122 E1.71325
G1 X59.798 Y44.942 E1.73109
G1 X60.007 Y45.361 E1.7399
G1 X60.39 Y46.277 E1.75857
G1 X60.544 Y46.729 E1.76756
G1 X60.795 Y47.662 E1.78573
G1 X60.891 Y48.141 E1.79492
G1 X61.02 Y49.12 E1.81349
G1 X61.052 Y49.618 E1.82288
G1 X61.052 Y50.566 E1.84071
G1 X61.02 Y51.066 E1.85014
G1 X60.891 Y52.047 E1.86875
G1 X60.795 Y52.526 E1.87794
G1 X60.542 Y53.464 E1.89621
G1 X60.389 Y53.912 E1.90512
G1 X60.014 Y54.81 E1.92343
G1 X59.805 Y55.231 E1.93227
G1 X59.324 Y56.06 E1.9503
G1 X59.064 Y56.448 E1.95908
G1 X58.477 Y57.212 E1.9772
G1 X58.174 Y57.557 E1.98584
G1 X57.5 Y58.231 E2.00377
G1 X57.152 Y58.537 E2.01249
G1 X56.385 Y59.127 E2.03069
G1 X55.997 Y59.387 E2.03948
G1 X55.131 Y59.887 E2.05829
G1 X54.811 Y60.046 E2.06501
G1 X53.831 Y60.458 E2.085
G1 X53.382 Y60.61 E2.09392
G1 X52.463 Y60.857 E2.11182
G1 X51.984 Y60.953 E2.12101
G1 X51.018 Y61.081 E2.13934
G1 X50.519 Y61.114 E2.14875
G1 X49.542 Y61.114 E2.16713
G1 X49.044 Y61.081 E2.17651
G1 X48.082 Y60.953 E2.19477
G1 X47.602 Y60.857 E2.20398
G1 X46.675 Y60.609 E2.22203
G1 X46.227 Y60.457 E2.23093
G1 X45.315 Y60.077 E2.24951
G1 X44.894 Y59.868 E2.25835
G1 X44.028 Y59.362 E2.27722
G1 X43.725 Y59.159 E2.28408
G1 X42.902 Y58.53 E2.30357
G1 X42.555 Y58.224 E2.31227
G1 X41.889 Y57.557 E2.33
G1 X41.586 Y57.212 E2.33864
G1 X41.006 Y56.459 E2.35651
G1 X40.745 Y56.071 E2.36531
G1 X40.233 Y55.183 E2.38459
G1 X40.079 Y54.873 E2.3911
G1 X39.668 Y53.898 E2.41101
G1 X39.516 Y53.45 E2.41991
G1 X39.268 Y52.526 E2.4379
G1 X39.172 Y52.047 E2.44709
G1 X39.044 Y51.082 E2.4654
G1 X39.011 Y50.584 E2.47479
G1 X39.011 Y49.608 E2.49315
G1 X39.044 Y49.108 E2.50258
G1 X39.172 Y48.141 E2.52092
G1 X39.268 Y47.662 E2.53011
G1 X39.515 Y46.743 E2.54801
G1 X39.667 Y46.294 E2.55693
G1 X40.051 Y45.37 E2.57575
G1 X40.26 Y44.95 E2.58458
G1 X40.745 Y44.117 E2.60271
G1 X41.006 Y43.729 E2.6115
G1 X41.579 Y42.984 E2.62918
G1 X41.882 Y42.638 E2.63784
G1 X42.564 Y41.955 E2.65599
G0 F3600 X42.828 Y42.255
G1 F1800 X43.175 Y41.95 E2.66468
G1 X43.899 Y41.393 E2.68186
G1 X44.287 Y41.133 E2.69065
G1 X45.071 Y40.678 E2.7077
G1 X45.492 Y40.469 E2.71654
G1 X46.356 Y40.11 E2.73414
G1 X46.804 Y39.958 E2.74304
G1 X47.666 Y39.726 E2.75983
G1 X48.146 Y39.629 E2.76904
G1 X49.084 Y39.504 E2.78684
G1 X49.582 Y39.472 E2.79623
G1 X50.479 Y39.472 E2.8131
G1 X50.978 Y39.504 E2.82251
G1 X51.919 Y39.629 E2.84037
G1 X52.398 Y39.726 E2.84956
G1 X53.254 Y39.957 E2.86624
G1 X53.703 Y40.109 E2.87515
G1 X54.577 Y40.472 E2.89296
G1 X54.997 Y40.681 E2.90178
G1 X55.775 Y41.133 E2.91871
G1 X56.163 Y41.393 E2.92749
G1 X56.878 Y41.942 E2.94445
G1 X57.224 Y42.245 E2.9531
G1 X57.876 Y42.897 E2.97044
G1 X58.181 Y43.245 E2.97915
G1 X58.73 Y43.959 E2.99609
G1 X58.989 Y44.345 E3.00484
G1 X59.44 Y45.12 E3.0217
G1 X59.649 Y45.539 E3.03051
G1 X60.011 Y46.406 E3.04818
G1 X60.165 Y46.858 E3.05717
G1 X60.403 Y47.74 E3.07435
G1 X60.499 Y48.219 E3.08354
G1 X60.621 Y49.146 E3.10113
G1 X60.653 Y49.644 E3.11051
G1 X60.653 Y50.54 E3.12737
G1 X60.621 Y51.04 E3.13679
G1 X60.499 Y51.969 E3.15442
G1 X60.403 Y52.448 E3.16361
G1 X60.163 Y53.334 E3.18087
G1 X60.01 Y53.782 E3.18978
G1 X59.656 Y54.633 E3.20712
G1 X59.447 Y55.054 E3.21596
G1 X58.992 Y55.838 E3.23301
G1 X58.732 Y56.226 E3.24179
G1 X58.177 Y56.948 E3.25892
G1 X57.874 Y57.293 E3.26756
G1 X57.236 Y57.931 E3.28453
G1 X56.888 Y58.237 E3.29325
G1 X56.163 Y58.795 E3.31046
G1 X55.775 Y59.055 E3.31925
G1 X54.955 Y59.527 E3.33704
G1 X54.629 Y59.689 E3.34389
G1 X53.703 Y60.079 E3.36279
G1 X53.254 Y60.231 E3.37171
G1 X52.385 Y60.465 E3.38864
G1 X51.906 Y60.561 E3.39783
G1 X50.992 Y60.682 E3.41517
G1 X50.493 Y60.715 E3.42458
G1 X49.568 Y60.715 E3.44198
G1 X49.07 Y60.682 E3.45136
G1 X48.16 Y60.561 E3.46863
G1 X47.68 Y60.465 E3.47784
G1 X46.804 Y60.23 E3.4949
G1 X46.356 Y60.078 E3.5038
G1 X45.492 Y59.719 E3.5214
G1 X45.071 Y59.51 E3.53024
G1 X44.252 Y59.031 E3.54809
G1 X43.945 Y58.825 E3.55504
G1 X43.166 Y58.23 E3.57348
G1 X42.819 Y57.924 E3.58218
G1 X42.189 Y57.293 E3.59896
G1 X41.886 Y56.948 E3.60759
G1 X41.338 Y56.236 E3.62449
G1 X41.077 Y55.848 E3.63329
G1 X40.593 Y55.008 E3.65153
G1 X40.436 Y54.691 E3.65818
G1 X40.047 Y53.769 E3.677
G1 X39.895 Y53.321 E3.6859
G1 X39.66 Y52.448 E3.70291
G1 X39.564 Y51.969 E3.7121
G1 X39.443 Y51.056 E3.72942
G1 X39.41 Y50.558 E3.73881
G1 X39.41 Y49.634 E3.75619
G1 X39.443 Y49.134 E3.76562
G1 X39.564 Y48.219 E3.78298
G1 X39.66 Y47.74 E3.79217
G1 X39.894 Y46.871 E3.8091
G1 X40.046 Y46.422 E3.81801
G1 X40.409 Y45.548 E3.83582
G1 X40.618 Y45.128 E3.84464
G1 X41.077 Y44.34 E3.8618
G1 X41.338 Y43.952 E3.87059
G1 X41.88 Y43.247 E3.88732
G1 X42.183 Y42.901 E3.89597
G1 X42.828 Y42.255 E3.91314
G0 F3600 X43.092 Y42.556
G1 F1800 X43.439 Y42.251 E3.92183
G1 X44.122 Y41.725 E3.93805
G1 X44.51 Y41.465 E3.94683
G1 X45.249 Y41.036 E3.96291
G1 X45.67 Y40.827 E3.97175
G1 X46.484 Y40.489 E3.98833
G1 X46.932 Y40.337 E3.99723
G1 X47.746 Y40.118 E4.01308
G1 X48.226 Y40.021 E4.0223
G1 X49.11 Y39.904 E4.03907
G1 X49.608 Y39.872 E4.04846
G1 X50.453 Y39.872 E4.06435
G1 X50.952 Y39.904 E4.07376
G1 X51.84 Y40.021 E4.0906
G1 X52.319 Y40.118 E4.0998
G1 X53.125 Y40.336 E4.1155
G1 X53.574 Y40.488 E4.12442
G1 X54.398 Y40.83 E4.1412
G1 X54.818 Y41.039 E4.15003
G1 X55.552 Y41.465 E4.16599
G1 X55.94 Y41.725 E4.17478
G1 X56.614 Y42.243 E4.19077
G1 X56.96 Y42.546 E4.19942
G1 X57.575 Y43.161 E4.21578
G1 X57.88 Y43.509 E4.22448
G1 X58.398 Y44.182 E4.24046
G1 X58.657 Y44.568 E4.2492
G1 X59.082 Y45.299 E4.26511
G1 X59.291 Y45.718 E4.27391
G1 X59.632 Y46.535 E4.29057
G1 X59.786 Y46.987 E4.29955
G1 X60.01 Y47.819 E4.31576
G1 X60.106 Y48.298 E4.32495
G1 X60.221 Y49.172 E4.34153
G1 X60.253 Y49.67 E4.35092
G1 X60.254 Y50.515 E4.36681
G1 X60.222 Y51.015 E4.37624
G1 X60.106 Y51.89 E4.39284
G1 X60.01 Y52.369 E4.40203
G1 X59.785 Y53.205 E4.41831
G1 X59.632 Y53.653 E4.42722
G1 X59.298 Y54.455 E4.44356
G1 X59.089 Y54.876 E4.4524
G1 X58.66 Y55.615 E4.46848
G1 X58.4 Y56.003 E4.47726
G1 X57.876 Y56.684 E4.49342
G1 X57.573 Y57.029 E4.50206
G1 X56.972 Y57.63 E4.51805
G1 X56.624 Y57.936 E4.52677
G1 X55.94 Y58.463 E4.54301
G1 X55.552 Y58.723 E4.55179
G1 X54.779 Y59.168 E4.56857
G1 X54.448 Y59.333 E4.57553
G1 X53.574 Y59.7 E4.59336
G1 X53.125 Y59.852 E4.60228
G1 X52.306 Y60.072 E4.61823
G1 X51.827 Y60.168 E4.62742
G1 X50.966 Y60.283 E4.64376
G1 X50.467 Y60.316 E4.65317
G1 X49.595 Y60.316 E4.66957
G1 X49.097 Y60.283 E4.67896
G1 X48.239 Y60.169 E4.69524
G1 X47.759 Y60.073 E4.70445
G1 X46.932 Y59.851 E4.72055
G1 X46.484 Y59.699 E4.72945
G1 X45.67 Y59.361 E4.74603
G1 X45.249 Y59.152 E4.75487
G1 X44.477 Y58.701 E4.77169
G1 X44.165 Y58.491 E4.77877
G1 X43.431 Y57.93 E4.79614
G1 X43.084 Y57.624 E4.80485
G1 X42.49 Y57.029 E4.82066
G1 X42.187 Y56.684 E4.8293
G1 X41.67 Y56.013 E4.84523
G1 X41.409 Y55.625 E4.85403
G1 X40.952 Y54.833 E4.87123
G1 X40.792 Y54.51 E4.87801
G1 X40.426 Y53.641 E4.89575
G1 X40.274 Y53.193 E4.90464
G1 X40.053 Y52.369 E4.92069
G1 X39.957 Y51.89 E4.92988
G1 X39.842 Y51.029 E4.94622
G1 X39.809 Y50.531 E4.95561
G1 X39.809 Y49.66 E4.97199
G1 X39.842 Y49.16 E4.98142
G1 X39.957 Y48.298 E4.99778
G1 X40.053 Y47.819 E5.00697
G1 X40.273 Y47 E5.02292
G1 X40.425 Y46.551 E5.03184
G1 X40.767 Y45.727 E5.04862
G1 X40.976 Y45.307 E5.05744
G1 X41.409 Y44.563 E5.07364
G1 X41.67 Y44.175 E5.08243
G1 X42.181 Y43.511 E5.09819
G1 X42.484 Y43.165 E5.10684
G1 X43.092 Y42.556 E5.12303
G0 F3600 X43.356 Y42.856
G1 F1800 X43.703 Y42.551 E5.13172
G1 X44.345 Y42.057 E5.14696
G1 X44.733 Y41.797 E5.15574
G1 X45.427 Y41.395 E5.17083
G1 X45.848 Y41.186 E5.17967
G1 X46.613 Y40.868 E5.19526
G1 X47.061 Y40.716 E5.20415
G1 X47.825 Y40.51 E5.21904
G1 X48.305 Y40.413 E5.22825
G1 X49.135 Y40.303 E5.244
G1 X49.633 Y40.271 E5.25339
G1 X50.428 Y40.271 E5.26834
G1 X50.927 Y40.303 E5.27775
G1 X51.761 Y40.413 E5.29357
G1 X52.24 Y40.51 E5.30276
G1 X52.997 Y40.714 E5.31751
G1 X53.446 Y40.866 E5.32643
G1 X54.22 Y41.188 E5.3422
G1 X54.64 Y41.397 E5.35102
G1 X55.329 Y41.797 E5.36601
G1 X55.717 Y42.057 E5.37479
G1 X56.351 Y42.544 E5.38983
G1 X56.697 Y42.847 E5.39848
G1 X57.275 Y43.424 E5.41385
G1 X57.58 Y43.772 E5.42255
G1 X58.065 Y44.404 E5.43754
G1 X58.324 Y44.79 E5.44628
G1 X58.724 Y45.478 E5.46125
G1 X58.933 Y45.897 E5.47006
G1 X59.254 Y46.664 E5.4857
G1 X59.408 Y47.116 E5.49468
G1 X59.618 Y47.898 E5.50991
G1 X59.714 Y48.377 E5.5191
G1 X59.822 Y49.197 E5.53466
G1 X59.854 Y49.695 E5.54405
G1 X59.854 Y50.489 E5.55898
G1 X59.822 Y50.989 E5.56841
G1 X59.714 Y51.811 E5.584
G1 X59.618 Y52.29 E5.59319
G1 X59.406 Y53.076 E5.6085
G1 X59.253 Y53.524 E5.61741
G1 X58.939 Y54.277 E5.63276
G1 X58.73 Y54.698 E5.6416
G1 X58.328 Y55.392 E5.65668
G1 X58.068 Y55.78 E5.66547
G1 X57.575 Y56.42 E5.68067
G1 X57.272 Y56.765 E5.6893
G1 X56.708 Y57.33 E5.70432
G1 X56.36 Y57.636 E5.71304
G1 X55.717 Y58.131 E5.7283
G1 X55.329 Y58.391 E5.73709
G1 X54.604 Y58.809 E5.75283
G1 X54.267 Y58.976 E5.7599
G1 X53.446 Y59.322 E5.77666
G1 X52.997 Y59.474 E5.78558
G1 X52.227 Y59.68 E5.80057
G1 X51.748 Y59.776 E5.80976
G1 X50.939 Y59.883 E5.82511
G1 X50.44 Y59.916 E5.83452
G1 X49.621 Y59.916 E5.84992
G1 X49.123 Y59.883 E5.85931
G1 X48.317 Y59.777 E5.8746
G1 X47.837 Y59.681 E5.88381
G1 X47.061 Y59.472 E5.89893
G1 X46.613 Y59.32 E5.90783
G1 X45.848 Y59.002 E5.92341
G1 X45.427 Y58.793 E5.93225
G1 X44.702 Y58.37 E5.94804
G1 X44.385 Y58.157 E5.95523
G1 X43.695 Y57.63 E5.97156
G1 X43.348 Y57.324 E5.98026
G1 X42.791 Y56.765 E5.99511
G1 X42.488 Y56.42 E6.00374
G1 X42.002 Y55.79 E6.01871
G1 X41.741 Y55.402 E6.02751
G1 X41.312 Y54.657 E6.04368
G1 X41.149 Y54.329 E6.05057
G1 X40.805 Y53.512 E6.06724
G1 X40.653 Y53.064 E6.07614
G1 X40.445 Y52.29 E6.09122
G1 X40.349 Y51.811 E6.10041
G1 X40.242 Y51.003 E6.11574
G1 X40.209 Y50.505 E6.12513
G1 X40.208 Y49.687 E6.14051
G1 X40.241 Y49.187 E6.14994
G1 X40.349 Y48.377 E6.16531
G1 X40.445 Y47.898 E6.1745
G1 X40.651 Y47.128 E6.18949
G1 X40.803 Y46.679 E6.19841
G1 X41.125 Y45.905 E6.21418
G1 X41.334 Y45.485 E6.223
G1 X41.741 Y44.786 E6.23822
G1 X42.002 Y44.398 E6.24701
G1 X42.482 Y43.774 E6.26182
G1 X42.785 Y43.428 E6.27047
G1 X43.356 Y42.856 E6.28568
G0 F3600 X43.62 Y43.157
G1 F1800 X43.967 Y42.852 E6.29437
G1 X44.567 Y42.39 E6.30861
G1 X44.955 Y42.13 E6.3174
G1 X45.605 Y41.753 E6.33153
G1 X46.026 Y41.544 E6.34037
G1 X46.741 Y41.247 E6.35494
G1 X47.189 Y41.095 E6.36384
G1 X47.904 Y40.902 E6.37777
G1 X48.384 Y40.805 E6.38698
G1 X49.161 Y40.702 E6.40172
G1 X49.659 Y40.67 E6.41111
G1 X50.402 Y40.67 E6.42509
G1 X50.901 Y40.702 E6.43449
G1 X51.681 Y40.805 E6.44929
G1 X52.16 Y40.902 E6.45849
G1 X52.869 Y41.093 E6.4723
G1 X53.318 Y41.245 E6.48121
G1 X54.042 Y41.546 E6.49596
G1 X54.462 Y41.755 E6.50479
G1 X55.107 Y42.13 E6.51882
G1 X55.495 Y42.39 E6.52761
G1 X56.087 Y42.845 E6.54165
G1 X56.433 Y43.148 E6.5503
G1 X56.974 Y43.688 E6.56468
G1 X57.279 Y44.036 E6.57339
G1 X57.733 Y44.627 E6.58741
G1 X57.992 Y45.013 E6.59615
G1 X58.366 Y45.656 E6.61014
G1 X58.575 Y46.075 E6.61895
G1 X58.875 Y46.793 E6.63359
G1 X59.029 Y47.245 E6.64257
G1 X59.226 Y47.976 E6.65681
G1 X59.322 Y48.455 E6.666
G1 X59.423 Y49.223 E6.68057
G1 X59.455 Y49.721 E6.68996
G1 X59.455 Y50.463 E6.70391
G1 X59.423 Y50.963 E6.71334
G1 X59.322 Y51.733 E6.72795
G1 X59.226 Y52.212 E6.73714
G1 X59.028 Y52.947 E6.75146
G1 X58.875 Y53.395 E6.76036
G1 X58.581 Y54.099 E6.77471
G1 X58.372 Y54.52 E6.78355
G1 X57.995 Y55.17 E6.79769
G1 X57.735 Y55.558 E6.80647
G1 X57.275 Y56.156 E6.82067
G1 X56.972 Y56.501 E6.8293
G1 X56.444 Y57.03 E6.84336
G1 X56.096 Y57.336 E6.85208
G1 X55.495 Y57.798 E6.86634
G1 X55.107 Y58.058 E6.87512
G1 X54.428 Y58.449 E6.88986
G1 X54.086 Y58.62 E6.89705
G1 X53.318 Y58.943 E6.91273
G1 X52.869 Y59.095 E6.92164
G1 X52.149 Y59.288 E6.93567
G1 X51.67 Y59.384 E6.94485
G1 X50.913 Y59.484 E6.95922
G1 X50.414 Y59.517 E6.96862
G1 X49.648 Y59.517 E6.98303
G1 X49.15 Y59.484 E6.99242
G1 X48.396 Y59.384 E7.00673
G1 X47.916 Y59.288 E7.01594
G1 X47.189 Y59.093 E7.0301
G1 X46.741 Y58.941 E7.03899
G1 X46.026 Y58.644 E7.05356
G1 X45.605 Y58.435 E7.0624
G1 X44.926 Y58.039 E7.07719
G1 X44.605 Y57.823 E7.08446
G1 X43.96 Y57.33 E7.09973
G1 X43.613 Y57.024 E7.10844
G1 X43.091 Y56.501 E7.12234
G1 X42.788 Y56.156 E7.13097
G1 X42.334 Y55.566 E7.14498
G1 X42.073 Y55.178 E7.15377
