G28 ; Home
G1 Z15.0 F6000 ;move the platform down 15mm
;Prime the extruder
G92 E0
G1 F200 E3
G92 E0
M109 S220
;Generated with Cura_SteamEngine DEV
;LAYER:0
M107
G0 F9000 X-0.313 Y-3.174 Z0.300
G0 X0.998 Y-3.200
;TYPE:SKIRT
G1 F900 X39.326 Y-3.200 E4.59936
G1 X40.069 Y-3.190 E4.68853
G1 X40.198 Y-3.184 E4.70402
G1 X40.242 Y-3.181 E4.70932
G1 X40.377 Y-3.168 E4.72559
G1 X40.444 Y-3.160 E4.73369
G1 X40.523 Y-3.147 E4.74330
G1 X40.631 Y-3.128 E4.75646
G1 X40.685 Y-3.116 E4.76309
G1 X40.808 Y-3.086 E4.77829
G1 X40.866 Y-3.071 E4.78548
G1 X40.964 Y-3.041 E4.79777
G1 X41.019 Y-3.023 E4.80472
G1 X41.142 Y-2.979 E4.82039
G1 X41.225 Y-2.946 E4.83111
G1 X41.271 Y-2.926 E4.83713
G1 X41.386 Y-2.873 E4.85233
G1 X41.459 Y-2.837 E4.86209
G1 X41.518 Y-2.806 E4.87009
G1 X41.634 Y-2.740 E4.88611
G1 X41.696 Y-2.703 E4.89477
G1 X41.738 Y-2.676 E4.90076
G1 X41.830 Y-2.613 E4.91414
G1 X41.912 Y-2.554 E4.92627
G1 X41.985 Y-2.498 E4.93731
G1 X42.037 Y-2.455 E4.94540
G1 X42.128 Y-2.377 E4.95979
G1 X42.161 Y-2.348 E4.96506
G1 X42.250 Y-2.262 E4.97991
G1 X42.316 Y-2.195 E4.99120
G1 X42.333 Y-2.177 E4.99417
G1 X42.411 Y-2.089 E5.00828
G1 X42.470 Y-2.018 E5.01936
G1 X42.557 Y-1.908 E5.03618
G1 X42.570 Y-1.891 E5.03875
G1 X42.655 Y-1.769 E5.05660
G1 X42.673 Y-1.742 E5.06049
G1 X42.744 Y-1.628 E5.07661
G1 X42.772 Y-1.580 E5.08327
G1 X42.821 Y-1.491 E5.09547
G1 X42.856 Y-1.421 E5.10486
G1 X42.907 Y-1.315 E5.11897
G1 X42.945 Y-1.228 E5.13037
G1 X42.958 Y-1.196 E5.13451
G1 X43.010 Y-1.059 E5.15209
G1 X43.021 Y-1.027 E5.15616
G1 X43.056 Y-0.916 E5.17012
G1 X43.079 Y-0.835 E5.18023
G1 X43.099 Y-0.755 E5.19012
G1 X43.119 Y-0.668 E5.20083
G1 X43.137 Y-0.579 E5.21173
G1 X43.156 Y-0.464 E5.22572
G1 X43.165 Y-0.404 E5.23300
G1 X43.174 Y-0.315 E5.24373
G1 X43.200 Y0.998 E5.40132
G1 X43.200 Y9.326 E6.40068
G1 X43.190 Y10.069 E6.48985
G1 X43.184 Y10.198 E6.50535
G1 X43.182 Y10.232 E6.50943
G1 X43.168 Y10.377 E6.52692
G1 X43.160 Y10.444 E6.53501
G1 X43.147 Y10.523 E6.54462
G1 X43.128 Y10.631 E6.55778
G1 X43.116 Y10.685 E6.56442
G1 X43.089 Y10.797 E6.57824
G1 X43.071 Y10.866 E6.58680
G1 X43.041 Y10.964 E6.59910
G1 X43.022 Y11.021 E6.60631
G1 X42.979 Y11.142 E6.62172
G1 X42.946 Y11.225 E6.63244
G1 X42.926 Y11.271 E6.63846
G1 X42.873 Y11.386 E6.65365
G1 X42.837 Y11.459 E6.66342
G1 X42.806 Y11.518 E6.67142
G1 X42.740 Y11.634 E6.68743
G1 X42.703 Y11.696 E6.69610
G1 X42.675 Y11.739 E6.70225
G1 X42.613 Y11.830 E6.71547
G1 X42.553 Y11.913 E6.72776
G1 X42.498 Y11.985 E6.73863
G1 X42.455 Y12.037 E6.74673
G1 X42.377 Y12.128 E6.76111
G1 X42.348 Y12.161 E6.76638
G1 X42.261 Y12.250 E6.78132
G1 X42.191 Y12.320 E6.79319
G1 X42.147 Y12.361 E6.80041
G1 X41.743 Y12.716 E6.86495
G1 X39.646 Y14.614 E7.20436
G1 X37.604 Y16.571 E7.54376
G1 X35.618 Y18.584 E7.88309
G1 X33.689 Y20.654 E8.22263
G1 X32.754 Y21.714 E8.39224
G1 X32.348 Y22.161 E8.46471
G1 X32.261 Y22.250 E8.47964
G1 X32.191 Y22.320 E8.49152
G1 X32.147 Y22.361 E8.49874
G1 X31.743 Y22.716 E8.56328
G1 X29.646 Y24.614 E8.90268
G1 X27.604 Y26.571 E9.24209
G1 X25.618 Y28.584 E9.58142
G1 X23.689 Y30.654 E9.92096
G1 X22.754 Y31.714 E10.09057
G1 X22.348 Y32.161 E10.16303
G1 X22.261 Y32.250 E10.17797
G1 X22.191 Y32.320 E10.18985
G1 X22.147 Y32.361 E10.19707
G1 X21.743 Y32.716 E10.26160
G1 X19.646 Y34.614 E10.60101
G1 X17.604 Y36.571 E10.94041
G1 X15.618 Y38.584 E11.27975
G1 X13.689 Y40.654 E11.61928
G1 X12.754 Y41.714 E11.78890
G1 X12.365 Y42.142 E11.85830
G1 X12.261 Y42.250 E11.87629
G1 X12.191 Y42.320 E11.88817
G1 X12.167 Y42.342 E11.89208
G1 X12.083 Y42.416 E11.90551
G1 X12.005 Y42.481 E11.91770
G1 X11.916 Y42.551 E11.93128
G1 X11.875 Y42.581 E11.93738
G1 X11.769 Y42.655 E11.95289
G1 X11.742 Y42.673 E11.95679
G1 X11.636 Y42.739 E11.97177
G1 X11.572 Y42.776 E11.98064
G1 X11.494 Y42.819 E11.99133
G1 X11.421 Y42.856 E12.00115
G1 X11.315 Y42.907 E12.01527
G1 X11.228 Y42.945 E12.02666
G1 X11.189 Y42.961 E12.03172
G1 X11.059 Y43.010 E12.04839
G1 X11.006 Y43.028 E12.05511
G1 X10.916 Y43.056 E12.06642
G1 X10.832 Y43.080 E12.07690
G1 X10.755 Y43.099 E12.08642
G1 X10.656 Y43.122 E12.09861
G1 X10.563 Y43.140 E12.10998
G1 X10.464 Y43.156 E12.12202
G1 X10.404 Y43.165 E12.12930
G1 X10.315 Y43.174 E12.14003
G1 X9.002 Y43.200 E12.29762
G1 X0.674 Y43.200 E13.29698
G1 X-0.069 Y43.190 E13.38615
G1 X-0.198 Y43.184 E13.40165
G1 X-0.242 Y43.181 E13.40694
G1 X-0.377 Y43.168 E13.42321
G1 X-0.444 Y43.160 E13.43131
G1 X-0.523 Y43.147 E13.44092
G1 X-0.634 Y43.127 E13.45445
G1 X-0.685 Y43.116 E13.46071
G1 X-0.808 Y43.086 E13.47591
G1 X-0.866 Y43.071 E13.48310
G1 X-0.964 Y43.041 E13.49539
G1 X-1.021 Y43.022 E13.50260
G1 X-1.142 Y42.979 E13.51801
G1 X-1.225 Y42.946 E13.52873
G1 X-1.271 Y42.926 E13.53475
G1 X-1.386 Y42.873 E13.54995
G1 X-1.459 Y42.837 E13.55971
G1 X-1.523 Y42.803 E13.56841
G1 X-1.636 Y42.739 E13.58399
G1 X-1.699 Y42.701 E13.59282
G1 X-1.742 Y42.673 E13.59898
G1 X-1.834 Y42.610 E13.61236
G1 X-1.913 Y42.553 E13.62405
G1 X-1.985 Y42.498 E13.63492
G1 X-2.042 Y42.451 E13.64379
G1 X-2.132 Y42.374 E13.65800
G1 X-2.161 Y42.347 E13.66276
G1 X-2.254 Y42.258 E13.67820
G1 X-2.333 Y42.177 E13.69178
G1 X-2.342 Y42.167 E13.69340
G1 X-2.425 Y42.072 E13.70853
G1 X-2.481 Y42.005 E13.71901
G1 X-2.570 Y41.891 E13.73637
G1 X-2.581 Y41.875 E13.73870
G1 X-2.655 Y41.769 E13.75421
G1 X-2.673 Y41.742 E13.75810
G1 X-2.746 Y41.625 E13.77465
G1 X-2.779 Y41.567 E13.78266
G1 X-2.824 Y41.485 E13.79388
G1 X-2.856 Y41.421 E13.80247
G1 X-2.910 Y41.307 E13.81761
G1 X-2.945 Y41.228 E13.82798
G1 X-2.961 Y41.189 E13.83304
G1 X-3.010 Y41.059 E13.84971
G1 X-3.028 Y41.006 E13.85642
G1 X-3.056 Y40.916 E13.86773
G1 X-3.080 Y40.832 E13.87822
G1 X-3.099 Y40.755 E13.88774
G1 X-3.122 Y40.654 E13.90017
G1 X-3.140 Y40.563 E13.91130
G1 X-3.156 Y40.464 E13.92333
G1 X-3.165 Y40.404 E13.93061
G1 X-3.174 Y40.315 E13.94135
G1 X-3.200 Y38.981 E14.10146
G1 X-3.200 Y0.661 E18.69986
G1 X-3.190 Y-0.069 E18.78746
G1 X-3.184 Y-0.198 E18.80296
G1 X-3.181 Y-0.242 E18.80825
G1 X-3.168 Y-0.377 E18.82453
G1 X-3.160 Y-0.444 E18.83263
G1 X-3.146 Y-0.530 E18.84308
G1 X-3.128 Y-0.631 E18.85539
G1 X-3.116 Y-0.685 E18.86203
G1 X-3.086 Y-0.808 E18.87722
G1 X-3.071 Y-0.866 E18.88441
G1 X-3.034 Y-0.987 E18.89960
G1 X-3.020 Y-1.027 E18.90468
G1 X-2.979 Y-1.142 E18.91933
G1 X-2.946 Y-1.225 E18.93005
G1 X-2.921 Y-1.283 E18.93763
G1 X-2.873 Y-1.386 E18.95127
G1 X-2.837 Y-1.459 E18.96103
G1 X-2.806 Y-1.518 E18.96903
G1 X-2.740 Y-1.634 E18.98505
G1 X-2.703 Y-1.696 E18.99371
G1 X-2.675 Y-1.739 E18.99987
G1 X-2.601 Y-1.847 E19.01558
G1 X-2.553 Y-1.913 E19.02537
G1 X-2.494 Y-1.990 E19.03701
G1 X-2.455 Y-2.037 E19.04434
G1 X-2.374 Y-2.132 E19.05932
G1 X-2.348 Y-2.161 E19.06400
G1 X-2.254 Y-2.258 E19.08021
G1 X-2.181 Y-2.329 E19.09243
G1 X-2.167 Y-2.342 E19.09472
G1 X-2.083 Y-2.416 E19.10815
G1 X-2.005 Y-2.481 E19.12034
G1 X-1.900 Y-2.563 E19.13632
G1 X-1.873 Y-2.583 E19.14035
G1 X-1.769 Y-2.655 E19.15553
G1 X-1.738 Y-2.676 E19.16003
G1 X-1.628 Y-2.744 E19.17554
G1 X-1.572 Y-2.776 E19.18328
G1 X-1.491 Y-2.821 E19.19440
G1 X-1.421 Y-2.856 E19.20380
G1 X-1.315 Y-2.907 E19.21791
G1 X-1.228 Y-2.945 E19.22930
G1 X-1.189 Y-2.961 E19.23436
G1 X-1.059 Y-3.010 E19.25103
G1 X-1.006 Y-3.028 E19.25775
G1 X-0.916 Y-3.056 E19.26906
G1 X-0.832 Y-3.080 E19.27954
G1 X-0.755 Y-3.099 E19.28906
G1 X-0.656 Y-3.122 E19.30126
G1 X-0.563 Y-3.140 E19.31262
G1 X-0.464 Y-3.156 E19.32466
G1 X-0.404 Y-3.165 E19.33194
G1 X-0.313 Y-3.174 E19.34291
G1 X-0.316 Y-3.174 E19.34327
G1 X0.998 Y-3.200 E19.50098
G0 F9000 X0.600 Y0.600
;TYPE:WALL-INNER
G1 F900 X39.400 Y0.600 E24.15698
G1 X39.400 Y9.400 E25.21298
G1 X29.400 Y9.400 E26.41298
G1 X29.400 Y19.400 E27.61298
G1 X19.400 Y19.400 E28.81298
G1 X19.400 Y29.400 E30.01298
G1 X9.400 Y29.400 E31.21298
G1 X9.400 Y39.400 E32.41298
G1 X0.600 Y39.400 E33.46898
G1 X0.600 Y0.600 E38.12498
G0 F9000 X0.200 Y0.200
;TYPE:WALL-OUTER
G1 F900 X39.800 Y0.200 E42.87698
G1 X39.800 Y9.800 E44.02898
G1 X29.800 Y9.800 E45.22898
G1 X29.800 Y19.800 E46.42898
G1 X19.800 Y19.800 E47.62898
G1 X19.800 Y29.800 E48.82898
G1 X9.800 Y29.800 E50.02898
G1 X9.800 Y39.800 E51.22898
G1 X0.200 Y39.800 E52.38098
G1 X0.200 Y0.200 E57.13298
G0 F9000 X0.739 Y0.739
;TYPE:SKIN
G1 F900 X19.259 Y19.259 E60.27593
G0 F9000 X19.259 Y19.825
G1 F900 X0.739 Y1.305 E63.41888
G0 F9000 X0.739 Y1.871
G1 F900 X19.259 Y20.390 E66.56174
G0 F9000 X19.259 Y20.956
G1 F900 X0.739 Y2.436 E69.70469
G0 F9000 X0.739 Y3.002
G1 F900 X19.259 Y21.522 E72.84764
G0 F9000 X19.259 Y22.087
G1 F900 X0.739 Y3.568 E75.99050
G0 F9000 X0.739 Y4.133
G1 F900 X19.259 Y22.653 E79.13345
G0 F9000 X19.259 Y23.219
G1 F900 X0.739 Y4.699 E82.27640
G0 F9000 X0.739 Y5.265
G1 F900 X19.259 Y23.784 E85.41926
G0 F9000 X19.259 Y24.350
G1 F900 X0.739 Y5.830 E88.56221
G0 F9000 X0.739 Y6.396
G1 F900 X19.259 Y24.916 E91.70516
G0 F9000 X19.259 Y25.482
G1 F900 X0.739 Y6.962 E94.84811
G0 F9000 X0.739 Y7.527
G1 F900 X19.259 Y26.047 E97.99106
G0 F9000 X19.259 Y26.613
G1 F900 X0.739 Y8.093 E101.13400
G0 F9000 X0.739 Y8.659
G1 F900 X19.259 Y27.179 E104.27695
G0 F9000 X19.259 Y27.744
G1 F900 X0.739 Y9.224 E107.41990
G0 F9000 X0.739 Y9.790
G1 F900 X19.259 Y28.310 E110.56285
G0 F9000 X19.259 Y28.876
G1 F900 X0.739 Y10.356 E113.70580
G0 F9000 X0.739 Y10.921
G1 F900 X19.077 Y29.259 E116.81786
G0 F9000 X18.511 Y29.259
G1 F900 X0.739 Y11.487 E119.83387
G0 F9000 X0.739 Y12.053
G1 F900 X17.945 Y29.259 E122.75382
G0 F9000 X17.379 Y29.259
G1 F900 X0.739 Y12.619 E125.57772
G0 F9000 X0.739 Y13.184
G1 F900 X16.814 Y29.259 E128.30574
G0 F9000 X16.248 Y29.259
G1 F900 X0.739 Y13.750 E130.93771
G0 F9000 X0.739 Y14.316
G1 F900 X15.682 Y29.259 E133.47362
G0 F9000 X15.117 Y29.259
G1 F900 X0.739 Y14.881 E135.91365
G0 F9000 X0.739 Y15.447
G1 F900 X14.551 Y29.259 E138.25762
G0 F9000 X13.985 Y29.259
G1 F900 X0.739 Y16.013 E140.50554
G0 F9000 X0.739 Y16.578
G1 F900 X13.420 Y29.259 E142.65758
G0 F9000 X12.854 Y29.259
G1 F900 X0.739 Y17.144 E144.71356
G0 F9000 X0.739 Y17.710
G1 F900 X12.288 Y29.259 E146.67349
G0 F9000 X11.723 Y29.259
G1 F900 X0.739 Y18.275 E148.53754
G0 F9000 X0.739 Y18.841
G1 F900 X11.157 Y29.259 E150.30553
G0 F9000 X10.591 Y29.259
G1 F900 X0.739 Y19.407 E151.97747
G0 F9000 X0.739 Y19.972
G1 F900 X10.026 Y29.259 E153.55353
G0 F9000 X9.460 Y29.259
G1 F900 X0.739 Y20.538 E155.03353
G0 F9000 X0.739 Y21.104
G1 F900 X9.259 Y29.624 E156.47942
G0 F9000 X9.259 Y30.189
G1 F900 X0.739 Y21.669 E157.92531
G0 F9000 X0.739 Y22.235
G1 F900 X9.259 Y30.755 E159.37121
G0 F9000 X9.259 Y31.321
G1 F900 X0.739 Y22.801 E160.81710
G0 F9000 X0.739 Y23.367
G1 F900 X9.259 Y31.886 E162.26290
G0 F9000 X9.259 Y32.452
G1 F900 X0.739 Y23.932 E163.70880
G0 F9000 X0.739 Y24.498
G1 F900 X9.259 Y33.018 E165.15469
G0 F9000 X9.259 Y33.584
G1 F900 X0.739 Y25.064 E166.60058
G0 F9000 X0.739 Y25.629
G1 F900 X9.259 Y34.149 E168.04647
G0 F9000 X9.259 Y34.715
G1 F900 X0.739 Y26.195 E169.49236
G0 F9000 X0.739 Y26.761
G1 F900 X9.259 Y35.281 E170.93826
G0 F9000 X9.259 Y35.846
G1 F900 X0.739 Y27.326 E172.38415
G0 F9000 X0.739 Y27.892
G1 F900 X9.259 Y36.412 E173.83004
G0 F9000 X9.259 Y36.978
G1 F900 X0.739 Y28.458 E175.27593
G0 F9000 X0.739 Y29.023
G1 F900 X9.259 Y37.543 E176.72182
G0 F9000 X9.259 Y38.109
G1 F900 X0.739 Y29.589 E178.16772
G0 F9000 X0.739 Y30.155
G1 F900 X9.259 Y38.675 E179.61361
G0 F9000 X9.259 Y39.240
G1 F900 X0.739 Y30.720 E181.05950
G0 F9000 X0.739 Y31.286
G1 F900 X8.712 Y39.259 E182.41256
G0 F9000 X8.146 Y39.259
G1 F900 X0.739 Y31.852 E183.66957
G0 F9000 X0.739 Y32.418
G1 F900 X7.580 Y39.259 E184.83053
G0 F9000 X7.015 Y39.259
G1 F900 X0.739 Y32.983 E185.89560
G0 F9000 X0.739 Y33.549
G1 F900 X6.449 Y39.259 E186.86462
G0 F9000 X5.883 Y39.259
G1 F900 X0.739 Y34.115 E187.73759
G0 F9000 X0.739 Y34.680
G1 F900 X5.318 Y39.259 E188.51467
G0 F9000 X4.752 Y39.259
G1 F900 X0.739 Y35.246 E189.19570
G0 F9000 X0.739 Y35.812
G1 F900 X4.186 Y39.259 E189.78067
G0 F9000 X3.621 Y39.259
G1 F900 X0.739 Y36.377 E190.26976
G0 F9000 X0.739 Y36.943
G1 F900 X3.055 Y39.259 E190.66280
G0 F9000 X2.489 Y39.259
G1 F900 X0.739 Y37.509 E190.95979
G0 F9000 X0.739 Y38.074
G1 F900 X1.924 Y39.259 E191.16089
G0 F9000 X1.358 Y39.259
G1 F900 X0.739 Y38.640 E191.26594
G0 F9000 X9.659 Y29.659
G0 X19.659 Y19.659
G0 X29.259 Y14.551
G1 F900 X15.448 Y0.740 E193.60974
G0 F9000 X16.013 Y0.740
G1 F900 X29.259 Y13.985 E195.85758
G0 F9000 X29.259 Y13.420
G1 F900 X16.579 Y0.740 E198.00944
G0 F9000 X17.145 Y0.740
G1 F900 X29.259 Y12.854 E200.06526
G0 F9000 X29.259 Y12.288
G1 F900 X17.710 Y0.740 E202.02510
G0 F9000 X18.276 Y0.740
G1 F900 X29.259 Y11.723 E203.88898
G0 F9000 X29.259 Y11.157
G1 F900 X18.842 Y0.740 E205.65680
G0 F9000 X19.407 Y0.740
G1 F900 X29.259 Y10.591 E207.32866
G0 F9000 X29.259 Y10.026
G1 F900 X19.973 Y0.740 E208.90454
G0 F9000 X20.539 Y0.740
G1 F900 X29.259 Y9.460 E210.38438
G0 F9000 X29.624 Y9.259
G1 F900 X21.105 Y0.740 E211.83010
G0 F9000 X21.670 Y0.740
G1 F900 X30.189 Y9.259 E213.27582
G0 F9000 X30.755 Y9.259
G1 F900 X22.236 Y0.740 E214.72154
G0 F9000 X22.802 Y0.740
G1 F900 X31.321 Y9.259 E216.16727
G0 F9000 X31.886 Y9.259
G1 F900 X23.367 Y0.740 E217.61299
G0 F9000 X23.933 Y0.740
G1 F900 X32.452 Y9.259 E219.05871
G0 F9000 X33.018 Y9.259
G1 F900 X24.499 Y0.740 E220.50443
G0 F9000 X25.064 Y0.740
G1 F900 X33.584 Y9.259 E221.95024
G0 F9000 X34.149 Y9.259
G1 F900 X25.630 Y0.740 E223.39596
G0 F9000 X26.196 Y0.740
G1 F900 X34.715 Y9.259 E224.84169
G0 F9000 X35.281 Y9.259
G1 F900 X26.761 Y0.740 E226.28749
G0 F9000 X27.327 Y0.740
G1 F900 X35.846 Y9.259 E227.73321
G0 F9000 X36.412 Y9.259
G1 F900 X27.893 Y0.740 E229.17894
G0 F9000 X28.458 Y0.740
G1 F900 X36.978 Y9.259 E230.62474
G0 F9000 X37.543 Y9.259
G1 F900 X29.024 Y0.740 E232.07047
G0 F9000 X29.590 Y0.740
G1 F900 X38.109 Y9.259 E233.51619
G0 F9000 X38.675 Y9.259
G1 F900 X30.155 Y0.740 E234.96200
G0 F9000 X30.721 Y0.740
G1 F900 X39.240 Y9.259 E236.40772
G0 F9000 X39.259 Y8.712
G1 F900 X31.287 Y0.740 E237.76061
G0 F9000 X31.853 Y0.740
G1 F900 X39.259 Y8.146 E239.01745
G0 F9000 X39.259 Y7.580
G1 F900 X32.418 Y0.740 E240.17832
G0 F9000 X32.984 Y0.740
G1 F900 X39.259 Y7.015 E241.24322
G0 F9000 X39.259 Y6.449
G1 F900 X33.550 Y0.740 E242.21207
G0 F9000 X34.115 Y0.740
G1 F900 X39.259 Y5.883 E243.08496
G0 F9000 X39.259 Y5.318
G1 F900 X34.681 Y0.740 E243.86187
G0 F9000 X35.247 Y0.740
G1 F900 X39.259 Y4.752 E244.54273
G0 F9000 X39.259 Y4.186
G1 F900 X35.812 Y0.740 E245.12762
G0 F9000 X36.378 Y0.740
G1 F900 X39.259 Y3.621 E245.61654
G0 F9000 X39.259 Y3.055
G1 F900 X36.944 Y0.740 E246.00941
G0 F9000 X37.509 Y0.740
G1 F900 X39.259 Y2.489 E246.30631
G0 F9000 X39.259 Y1.924
G1 F900 X38.075 Y0.740 E246.50724
G0 F9000 X38.641 Y0.740
G1 F900 X39.259 Y1.358 E246.61212
G0 F9000 X29.659 Y9.659
G0 X29.259 Y15.117
G1 F900 X14.882 Y0.740 E249.05197
G0 F9000 X14.316 Y0.740
G1 F900 X29.259 Y15.682 E251.58780
G0 F9000 X29.259 Y16.248
G1 F900 X13.751 Y0.740 E254.21960
G0 F9000 X13.185 Y0.740
G1 F900 X29.259 Y16.814 E256.94744
G0 F9000 X29.259 Y17.379
G1 F900 X12.619 Y0.740 E259.77126
G0 F9000 X12.054 Y0.740
G1 F900 X29.259 Y17.945 E262.69105
G0 F9000 X29.259 Y18.511
G1 F900 X11.488 Y0.740 E265.70689
G0 F9000 X10.922 Y0.740
G1 F900 X29.259 Y19.077 E268.81878
G0 F9000 X28.876 Y19.259
G1 F900 X10.356 Y0.740 E271.96164
G0 F9000 X9.791 Y0.740
G1 F900 X28.310 Y19.259 E275.10442
G0 F9000 X27.744 Y19.259
G1 F900 X9.225 Y0.740 E278.24720
G0 F9000 X8.659 Y0.740
G1 F900 X27.179 Y19.259 E281.39006
G0 F9000 X26.613 Y19.259
G1 F900 X8.094 Y0.740 E284.53284
G0 F9000 X7.528 Y0.740
G1 F900 X26.047 Y19.259 E287.67562
G0 F9000 X25.482 Y19.259
G1 F900 X6.962 Y0.740 E290.81848
G0 F9000 X6.397 Y0.740
G1 F900 X24.916 Y19.259 E293.96126
G0 F9000 X24.350 Y19.259
G1 F900 X5.831 Y0.740 E297.10404
G0 F9000 X5.265 Y0.740
G1 F900 X23.784 Y19.259 E300.24682
G0 F9000 X23.219 Y19.259
G1 F900 X4.700 Y0.740 E303.38960
G0 F9000 X4.134 Y0.740
G1 F900 X22.653 Y19.259 E306.53237
G0 F9000 X22.087 Y19.259
G1 F900 X3.568 Y0.740 E309.67515
G0 F9000 X3.003 Y0.740
G1 F900 X21.522 Y19.259 E312.81793
G0 F9000 X20.956 Y19.259
G1 F900 X2.437 Y0.740 E315.96071
G0 F9000 X1.871 Y0.740
G1 F900 X20.390 Y19.259 E319.10349
G0 F9000 X19.825 Y19.259
G1 F900 X1.306 Y0.740 E322.24627
;LAYER:1
M106 S63
