;Generated with Cura_SteamEngine DEV
M140 S140
M109 TO S235
M190 S140
G21        ;metric values
G90        ;absolute positioning
M82        ;set extruder to absolute mode
M107       ;start with the fan off
G28 ;move to min endstops
G92 E0                  ;zero the extruded length
G1 F150
;Put printing message on LCD screen
M117 Printing...
;Layer count: 80
;LAYER:0
M107
G0 F7200 X22.608 Y59.164 Z0.300
;TYPE:SKIRT
G1 F600 X29.802 Y56.189 E0.54180
G1 X36.554 Y55.306 E1.01572
G1 X43.830 Y55.305 E1.52211
G1 X53.810 Y55.304 E2.21668
G1 X53.810 Y55.303 E2.21675
G1 X62.223 Y55.303 E2.80227
G1 X77.212 Y55.301 E3.84546
G1 X77.212 Y55.302 E3.84553
G1 X121.727 Y55.296 E6.94363
G1 X126.011 Y55.296 E7.24178
G1 X131.200 Y55.295 E7.60292
G1 X141.036 Y55.295 E8.28748
G1 X145.200 Y55.294 E8.57728
G1 X148.463 Y55.294 E8.80437
G1 X155.220 Y56.183 E9.27869
G1 X162.414 Y59.164 E9.82065
G1 X168.590 Y63.903 E10.36244
G1 X172.062 Y68.427 E10.75934
G1 X173.326 Y70.072 E10.90372
G1 X175.522 Y75.370 E11.30286
G1 X176.312 Y77.283 E11.44691
G1 X177.057 Y82.949 E11.84464
G1 X177.333 Y84.943 E11.98473
G1 X176.575 Y90.712 E12.38969
G1 X176.291 Y92.761 E12.53366
G1 X174.125 Y97.987 E12.92737
G1 X174.126 Y97.987 E12.92744
G1 X173.334 Y99.902 E13.07167
G1 X169.843 Y104.452 E13.47080
G1 X168.583 Y106.091 E13.61468
G1 X162.414 Y110.824 E14.15583
G1 X155.220 Y113.805 E14.69779
G1 X147.500 Y114.821 E15.23971
G1 X139.780 Y113.805 E15.78163
G1 X132.588 Y110.825 E16.32344
G1 X126.409 Y106.086 E16.86540
G1 X122.937 Y101.561 E17.26234
G1 X122.449 Y100.926 E17.31808
G1 X121.764 Y99.845 E17.40715
G1 X121.748 Y99.823 E17.40904
G1 X121.732 Y99.806 E17.41067
G1 X121.704 Y99.779 E17.41337
G1 X121.691 Y99.770 E17.41447
G1 X121.666 Y99.756 E17.41647
G1 X121.660 Y99.753 E17.41693
G1 X121.653 Y99.751 E17.41744
G1 X120.497 Y99.751 E17.49790
G1 X63.405 Y99.727 E21.47132
G1 X63.383 Y99.735 E21.47295
G1 X63.366 Y99.743 E21.47425
G1 X63.349 Y99.753 E21.47563
G1 X63.313 Y99.778 E21.47868
G1 X63.291 Y99.795 E21.48061
G1 X63.270 Y99.816 E21.48268
G1 X63.232 Y99.866 E21.48705
G1 X62.555 Y100.926 E21.57459
G1 X59.836 Y104.472 E21.88558
G1 X58.571 Y106.117 E22.03000
G1 X52.390 Y110.850 E22.57181
G1 X45.195 Y113.823 E23.11362
G1 X37.477 Y114.833 E23.65535
G1 X29.757 Y113.811 E24.19733
G1 X22.564 Y110.824 E24.73939
G1 X16.393 Y106.080 E25.28111
G1 X12.932 Y101.563 E25.67715
G1 X12.931 Y101.563 E25.67722
G1 X11.662 Y99.912 E25.82214
G1 X9.473 Y94.612 E26.22123
G1 X9.472 Y94.612 E26.22130
G1 X8.683 Y92.703 E26.36506
G1 X7.673 Y84.984 E26.90686
G1 X8.429 Y79.271 E27.30793
G1 X8.712 Y77.222 E27.45189
G1 X10.904 Y71.944 E27.84964
G1 X11.706 Y70.041 E27.99336
G1 X15.168 Y65.535 E28.38884
G1 X16.429 Y63.896 E28.53276
G1 X22.608 Y59.164 E29.07442
G0 F7200 X22.910 Y59.688
G1 F600 X29.958 Y56.774 E29.60521
G1 X36.593 Y55.906 E30.07092
G1 X45.067 Y55.905 E30.66069
G1 X54.410 Y55.904 E31.31093
G1 X54.410 Y55.903 E31.31100
G1 X62.104 Y55.903 E31.84648
G1 X76.612 Y55.901 E32.85619
G1 X76.612 Y55.902 E32.85626
G1 X122.330 Y55.896 E36.03808
G1 X124.015 Y55.896 E36.15536
G1 X130.600 Y55.895 E36.61365
G1 X139.812 Y55.895 E37.25478
G1 X144.600 Y55.894 E37.58801
G1 X148.423 Y55.894 E37.85407
G1 X155.063 Y56.768 E38.32018
G1 X162.111 Y59.688 E38.85113
G1 X168.162 Y64.331 E39.38195
G1 X171.586 Y68.793 E39.77339
G1 X172.803 Y70.375 E39.91230
G1 X174.968 Y75.600 E40.30593
G1 X175.728 Y77.439 E40.44441
G1 X176.449 Y82.930 E40.82985
G1 X176.728 Y84.945 E40.97142
G1 X175.980 Y90.631 E41.37056
G1 X175.708 Y92.602 E41.50904
G1 X173.566 Y97.770 E41.89838
G1 X172.810 Y99.600 E42.03619
G1 X169.367 Y104.087 E42.42981
G1 X168.155 Y105.663 E42.56818
G1 X162.111 Y110.300 E43.09836
G1 X155.063 Y113.220 E43.62931
G1 X147.500 Y114.216 E44.16021
G1 X139.937 Y113.220 E44.69112
G1 X132.890 Y110.301 E45.22198
G1 X126.837 Y105.658 E45.75291
G1 X123.402 Y101.181 E46.14564
G1 X122.941 Y100.581 E46.19830
G1 X122.259 Y99.505 E46.28696
G1 X122.208 Y99.437 E46.29287
G1 X122.167 Y99.391 E46.29716
G1 X122.100 Y99.327 E46.30361
G1 X122.061 Y99.296 E46.30708
G1 X122.008 Y99.260 E46.31154
G1 X121.944 Y99.224 E46.31665
G1 X121.888 Y99.198 E46.32094
G1 X121.821 Y99.173 E46.32592
G1 X121.753 Y99.155 E46.33082
G1 X121.733 Y99.151 E46.33224
G1 X120.497 Y99.151 E46.41826
G1 X63.320 Y99.127 E50.39760
G1 X63.298 Y99.131 E50.39915
G1 X63.243 Y99.147 E50.40314
G1 X63.164 Y99.176 E50.40900
G1 X63.089 Y99.211 E50.41476
G1 X63.026 Y99.247 E50.41981
G1 X62.955 Y99.295 E50.42577
G1 X62.892 Y99.346 E50.43141
G1 X62.847 Y99.389 E50.43574
G1 X62.804 Y99.437 E50.44023
G1 X62.739 Y99.523 E50.44773
G1 X62.063 Y100.581 E50.53511
G1 X59.361 Y104.106 E50.84422
G1 X58.143 Y105.689 E50.98323
G1 X52.088 Y110.326 E51.51402
G1 X45.039 Y113.238 E52.04482
G1 X37.477 Y114.228 E52.57560
G1 X29.914 Y113.226 E53.10656
G1 X22.867 Y110.300 E53.63761
G1 X16.821 Y105.653 E54.16832
G1 X13.407 Y101.197 E54.55900
G1 X12.186 Y99.609 E54.69842
G1 X10.026 Y94.381 E55.09210
G1 X9.268 Y92.546 E55.23028
G1 X8.279 Y84.984 E55.76105
G1 X9.023 Y79.351 E56.15649
G1 X9.296 Y77.381 E56.29491
G1 X11.457 Y72.176 E56.68714
G1 X12.229 Y70.345 E56.82544
G1 X15.644 Y65.901 E57.21550
G1 X16.857 Y64.324 E57.35396
G1 X22.910 Y59.688 E57.88460
G0 F7200 X23.212 Y60.213
G1 F600 X30.114 Y57.359 E58.40440
G1 X36.632 Y56.506 E58.86190
G1 X46.274 Y56.505 E59.53296
G1 X55.010 Y56.504 E60.14095
G1 X55.010 Y56.503 E60.14102
G1 X61.985 Y56.503 E60.62646
G1 X76.012 Y56.501 E61.60270
G1 X76.012 Y56.502 E61.60276
G1 X130.000 Y56.495 E65.36016
G1 X138.617 Y56.495 E65.95987
G1 X144.000 Y56.494 E66.33451
G1 X148.384 Y56.494 E66.63963
G1 X154.907 Y57.353 E67.09753
G1 X161.808 Y60.212 E67.61740
G1 X167.734 Y64.759 E68.13725
G1 X171.121 Y69.172 E68.52441
G1 X171.120 Y69.172 E68.52448
G1 X172.279 Y70.678 E68.65674
G1 X174.413 Y75.829 E69.04478
G1 X175.143 Y77.595 E69.17778
G1 X175.867 Y83.105 E69.56455
G1 X176.122 Y84.947 E69.69397
G1 X175.386 Y90.551 E70.08734
G1 X175.124 Y92.443 E70.22027
G1 X173.012 Y97.541 E70.60432
G1 X172.286 Y99.297 E70.73657
G1 X168.892 Y103.721 E71.12463
G1 X167.728 Y105.235 E71.25755
G1 X161.808 Y109.776 E71.77681
G1 X154.907 Y112.635 E72.29668
G1 X147.500 Y113.610 E72.81663
G1 X140.093 Y112.635 E73.33658
G1 X133.193 Y109.776 E73.85639
G1 X127.265 Y105.230 E74.37631
G1 X123.878 Y100.816 E74.76353
G1 X123.879 Y100.816 E74.76360
G1 X123.433 Y100.237 E74.81447
G1 X122.756 Y99.167 E74.90259
G1 X122.673 Y99.057 E74.91218
G1 X122.601 Y98.976 E74.91972
G1 X122.499 Y98.879 E74.92952
G1 X122.423 Y98.817 E74.93634
G1 X122.319 Y98.747 E74.94507
G1 X122.213 Y98.687 E74.95355
G1 X122.112 Y98.640 E74.96130
G1 X122.004 Y98.601 E74.96929
G1 X121.903 Y98.573 E74.97658
G1 X121.785 Y98.551 E74.98494
G1 X120.497 Y98.551 E75.07458
G1 X63.263 Y98.527 E79.05788
G1 X63.168 Y98.546 E79.06463
G1 X63.048 Y98.579 E79.07329
G1 X62.936 Y98.621 E79.08161
G1 X62.807 Y98.680 E79.09149
G1 X62.712 Y98.735 E79.09913
G1 X62.597 Y98.813 E79.10880
G1 X62.499 Y98.892 E79.11756
G1 X62.414 Y98.973 E79.12573
G1 X62.345 Y99.050 E79.13293
G1 X62.248 Y99.179 E79.14416
G1 X61.572 Y100.237 E79.23154
G1 X58.885 Y103.741 E79.53885
G1 X57.716 Y105.260 E79.67225
G1 X51.786 Y109.802 E80.19211
G1 X44.883 Y112.653 E80.71190
G1 X37.478 Y113.622 E81.23166
G1 X30.071 Y112.642 E81.75166
G1 X23.170 Y109.776 E82.27172
G1 X17.250 Y105.225 E82.79140
G1 X13.867 Y100.811 E83.17845
G1 X12.710 Y99.307 E83.31052
G1 X10.582 Y94.154 E83.69853
G1 X10.581 Y94.154 E83.69860
G1 X9.853 Y92.390 E83.83141
G1 X8.884 Y84.985 E84.35117
G1 X9.618 Y79.432 E84.74100
G1 X9.880 Y77.540 E84.87393
G1 X12.011 Y72.407 E85.26074
G1 X12.751 Y70.650 E85.39342
G1 X16.119 Y66.267 E85.77812
G1 X17.284 Y64.753 E85.91108
G1 X23.212 Y60.213 E86.43074
G0 F7200 X23.514 Y60.737
G1 F600 X30.270 Y57.943 E86.93956
G1 X36.671 Y57.106 E87.38884
G1 X47.449 Y57.105 E88.13896
G1 X55.610 Y57.104 E88.70694
G1 X55.610 Y57.103 E88.70701
G1 X61.866 Y57.103 E89.14240
G1 X75.412 Y57.101 E90.08516
G1 X75.412 Y57.102 E90.08523
G1 X129.400 Y57.095 E93.84263
G1 X129.400 Y57.096 E93.84270
G1 X137.453 Y57.095 E94.40316
G1 X143.400 Y57.094 E94.81705
G1 X148.345 Y57.094 E95.16121
G1 X154.750 Y57.937 E95.61082
G1 X161.506 Y60.736 E96.11977
G1 X167.306 Y65.187 E96.62860
G1 X170.635 Y69.525 E97.00916
G1 X171.755 Y70.980 E97.13695
G1 X173.859 Y76.059 E97.51956
G1 X174.558 Y77.751 E97.64698
G1 X175.260 Y83.095 E98.02210
G1 X175.517 Y84.949 E98.15236
G1 X174.791 Y90.471 E98.53998
G1 X174.540 Y92.285 E98.66744
G1 X172.457 Y97.311 E99.04608
G1 X171.762 Y98.995 E99.17287
G1 X168.416 Y103.356 E99.55543
G1 X167.300 Y104.807 E99.68282
G1 X161.506 Y109.252 E100.19106
G1 X154.750 Y112.051 E100.70002
G1 X147.500 Y113.005 E101.20894
G1 X140.250 Y112.051 E101.71787
G1 X133.495 Y109.252 E102.22676
G1 X127.693 Y104.802 E102.73565
G1 X124.354 Y100.450 E103.11741
G1 X123.926 Y99.893 E103.16630
G1 X123.252 Y98.829 E103.25396
G1 X123.138 Y98.678 E103.26713
G1 X123.035 Y98.561 E103.27798
G1 X122.890 Y98.423 E103.29191
G1 X122.779 Y98.333 E103.30185
G1 X122.636 Y98.236 E103.31388
G1 X122.491 Y98.154 E103.32547
G1 X122.350 Y98.090 E103.33625
G1 X122.185 Y98.029 E103.34849
G1 X122.024 Y97.985 E103.36011
G1 X121.863 Y97.955 E103.37151
G1 X121.825 Y97.951 E103.37416
G1 X120.497 Y97.951 E103.46659
G1 X63.203 Y97.927 E107.45407
G1 X63.202 Y97.927 E107.45414
G1 X63.039 Y97.959 E107.46570
G1 X62.861 Y98.009 E107.47857
G1 X62.697 Y98.069 E107.49072
G1 X62.550 Y98.137 E107.50199
G1 X62.392 Y98.227 E107.51465
G1 X62.232 Y98.337 E107.52816
G1 X62.107 Y98.437 E107.53930
G1 X61.982 Y98.556 E107.55132
G1 X61.879 Y98.672 E107.56211
G1 X61.754 Y98.836 E107.57646
G1 X61.080 Y99.892 E107.66365
G1 X58.409 Y103.375 E107.96913
G1 X57.288 Y104.832 E108.09707
G1 X51.484 Y109.277 E108.60586
G1 X44.727 Y112.069 E109.11469
G1 X37.478 Y113.017 E109.62350
G1 X30.228 Y112.057 E110.13248
G1 X23.474 Y109.252 E110.64146
G1 X17.678 Y104.797 E111.15024
G1 X14.358 Y100.465 E111.53009
G1 X13.234 Y99.004 E111.65838
G1 X11.135 Y93.923 E112.04099
G1 X10.437 Y92.234 E112.16818
G1 X9.489 Y84.985 E112.67698
G1 X10.212 Y79.512 E113.06120
G1 X10.464 Y77.699 E113.18859
G1 X12.564 Y72.639 E113.56987
G1 X13.274 Y70.954 E113.69713
G1 X16.595 Y66.632 E114.07647
G1 X17.712 Y65.181 E114.20391
G1 X23.514 Y60.737 E114.71255
G0 F7200 X23.816 Y61.261
G1 F600 X30.427 Y58.528 E115.21042
G1 X36.710 Y57.706 E115.65143
G1 X48.591 Y57.705 E116.47831
G1 X56.210 Y57.704 E117.00856
G1 X56.210 Y57.703 E117.00863
G1 X61.748 Y57.703 E117.39406
G1 X74.812 Y57.701 E118.30327
G1 X74.812 Y57.702 E118.30334
G1 X128.800 Y57.695 E122.06074
G1 X128.800 Y57.696 E122.06081
G1 X136.321 Y57.695 E122.58424
G1 X142.800 Y57.694 E123.03516
G1 X148.306 Y57.694 E123.41836
G1 X154.593 Y58.522 E123.85970
G1 X161.203 Y61.260 E124.35764
G1 X166.879 Y65.614 E124.85551
G1 X170.169 Y69.903 E125.23171
G1 X171.231 Y71.283 E125.35290
G1 X173.304 Y76.288 E125.72993
G1 X173.974 Y77.908 E125.85194
G1 X174.666 Y83.177 E126.22180
G1 X174.911 Y84.951 E126.34643
G1 X174.197 Y90.391 E126.72829
G1 X173.956 Y92.126 E126.85020
G1 X171.903 Y97.081 E127.22348
G1 X171.237 Y98.693 E127.34487
G1 X167.940 Y102.990 E127.72181
G1 X166.872 Y104.378 E127.84370
G1 X161.203 Y108.728 E128.34101
G1 X154.593 Y111.466 E128.83895
G1 X147.500 Y112.400 E129.33686
G1 X140.407 Y111.466 E129.83477
G1 X133.798 Y108.728 E130.33265
G1 X128.121 Y104.374 E130.83057
G1 X124.830 Y100.085 E131.20682
G1 X124.418 Y99.549 E131.25387
G1 X123.746 Y98.487 E131.34134
G1 X123.604 Y98.298 E131.35779
G1 X123.462 Y98.139 E131.37263
G1 X123.289 Y97.974 E131.38927
G1 X123.133 Y97.848 E131.40322
G1 X122.961 Y97.731 E131.41770
G1 X122.770 Y97.623 E131.43297
G1 X122.564 Y97.528 E131.44876
G1 X122.368 Y97.457 E131.46327
G1 X122.159 Y97.400 E131.47835
G1 X121.952 Y97.361 E131.49301
G1 X121.858 Y97.351 E131.49958
G1 X120.497 Y97.351 E131.59431
G1 X63.174 Y97.327 E135.58381
G1 X63.107 Y97.335 E135.58850
G1 X62.901 Y97.374 E135.60309
G1 X62.673 Y97.438 E135.61957
G1 X62.474 Y97.511 E135.63433
G1 X62.264 Y97.609 E135.65046
G1 X62.078 Y97.715 E135.66536
G1 X61.874 Y97.854 E135.68254
G1 X61.714 Y97.983 E135.69684
G1 X61.549 Y98.140 E135.71269
G1 X61.413 Y98.293 E135.72694
G1 X61.263 Y98.490 E135.74417
G1 X60.588 Y99.547 E135.83145
G1 X57.933 Y103.010 E136.13515
G1 X56.861 Y104.404 E136.25754
G1 X51.182 Y108.753 E136.75536
G1 X44.571 Y111.484 E137.25318
G1 X37.479 Y112.412 E137.75097
G1 X30.385 Y111.473 E138.24899
G1 X23.777 Y108.729 E138.74697
G1 X18.106 Y104.370 E139.24477
G1 X14.820 Y100.082 E139.62075
G1 X14.821 Y100.082 E139.62082
G1 X13.758 Y98.701 E139.74211
G1 X11.690 Y93.694 E140.11914
G1 X11.022 Y92.078 E140.24083
G1 X10.094 Y84.986 E140.73862
G1 X10.807 Y79.592 E141.11729
G1 X11.047 Y77.857 E141.23919
G1 X13.118 Y72.870 E141.61501
G1 X13.797 Y71.258 E141.73675
G1 X17.071 Y66.998 E142.11068
G1 X18.139 Y65.609 E142.23262
G1 X23.816 Y61.261 E142.73029
G0 F7200 X24.119 Y61.786
G1 F600 X30.583 Y59.113 E143.21711
G1 X36.749 Y58.306 E143.64990
G1 X42.754 Y58.305 E144.06783
G1 X56.810 Y58.304 E145.04609
G1 X56.810 Y58.303 E145.04615
G1 X63.726 Y58.303 E145.52749
G1 X74.212 Y58.302 E146.25728
G1 X128.200 Y58.295 E150.01467
G1 X128.200 Y58.296 E150.01474
G1 X148.266 Y58.294 E151.41127
G1 X154.437 Y59.106 E151.84446
G1 X160.901 Y61.784 E152.33141
G1 X166.451 Y66.042 E152.81826
G1 X169.684 Y70.256 E153.18791
G1 X170.707 Y71.586 E153.30468
G1 X172.750 Y76.518 E153.67622
G1 X173.389 Y78.064 E153.79265
G1 X174.071 Y83.259 E154.15730
G1 X174.306 Y84.953 E154.27633
G1 X173.602 Y90.310 E154.65237
G1 X173.373 Y91.968 E154.76885
G1 X171.349 Y96.852 E155.13680
G1 X170.713 Y98.390 E155.25263
G1 X167.464 Y102.625 E155.62411
G1 X166.445 Y103.950 E155.74045
G1 X160.901 Y108.204 E156.22679
G1 X154.437 Y110.882 E156.71375
G1 X147.500 Y111.795 E157.20070
G1 X140.563 Y110.882 E157.68766
G1 X134.100 Y108.204 E158.17455
G1 X128.549 Y103.946 E158.66145
G1 X125.306 Y99.720 E159.03219
G1 X124.910 Y99.205 E159.07740
G1 X124.240 Y98.146 E159.16461
G1 X124.069 Y97.919 E159.18439
G1 X123.896 Y97.724 E159.20254
G1 X123.687 Y97.524 E159.22267
G1 X123.494 Y97.369 E159.23990
G1 X123.263 Y97.212 E159.25934
G1 X123.048 Y97.091 E159.27651
G1 X122.792 Y96.973 E159.29612
G1 X122.549 Y96.884 E159.31413
G1 X122.294 Y96.814 E159.33254
G1 X122.036 Y96.766 E159.35080
G1 X121.893 Y96.751 E159.36081
G1 X120.498 Y96.751 E159.45790
G1 X63.136 Y96.727 E163.45011
G1 X63.029 Y96.739 E163.45760
G1 X62.760 Y96.791 E163.47667
G1 X62.497 Y96.864 E163.49567
G1 X62.236 Y96.961 E163.51505
G1 X61.991 Y97.074 E163.53382
G1 X61.755 Y97.209 E163.55275
G1 X61.530 Y97.362 E163.57168
G1 X61.309 Y97.541 E163.59148
G1 X61.117 Y97.724 E163.60994
G1 X60.947 Y97.914 E163.62768
G1 X60.773 Y98.144 E163.64775
G1 X60.096 Y99.203 E163.73523
G1 X57.457 Y102.645 E164.03709
G1 X56.433 Y103.975 E164.15391
G1 X50.880 Y108.229 E164.64075
G1 X44.414 Y110.899 E165.12762
G1 X37.479 Y111.807 E165.61439
G1 X30.542 Y110.888 E166.10140
G1 X24.080 Y108.205 E166.58836
G1 X18.534 Y103.942 E167.07520
G1 X15.296 Y99.717 E167.44567
G1 X14.282 Y98.399 E167.56140
G1 X12.244 Y93.465 E167.93293
G1 X12.245 Y93.465 E167.93300
G1 X11.607 Y91.922 E168.04921
G1 X10.699 Y84.986 E168.53605
G1 X11.402 Y79.673 E168.90904
G1 X11.631 Y78.016 E169.02546
G1 X13.671 Y73.102 E169.39576
G1 X14.320 Y71.563 E169.51200
G1 X17.546 Y67.364 E169.88053
G1 X18.567 Y66.038 E169.99700
G1 X24.119 Y61.786 E170.48370
G0 F7200 X24.421 Y62.310
G1 F600 X30.739 Y59.697 E170.95954
G1 X36.788 Y58.906 E171.38411
G1 X43.357 Y58.905 E171.84130
G1 X57.410 Y58.904 E172.81934
G1 X57.410 Y58.903 E172.81941
G1 X63.527 Y58.903 E173.24513
G1 X73.612 Y58.902 E173.94702
G1 X73.612 Y58.903 E173.94709
G1 X125.345 Y58.896 E177.54754
G1 X148.227 Y58.894 E179.14005
G1 X154.280 Y59.691 E179.56496
G1 X160.598 Y62.308 E180.04090
G1 X166.023 Y66.470 E180.51678
G1 X169.217 Y70.633 E180.88196
G1 X170.183 Y71.889 E180.99224
G1 X172.196 Y76.747 E181.35822
G1 X172.804 Y78.220 E181.46912
G1 X173.477 Y83.342 E181.82866
G1 X173.701 Y84.955 E181.94200
G1 X173.007 Y90.230 E182.31228
G1 X172.789 Y91.809 E182.42322
G1 X170.795 Y96.622 E182.78580
G1 X170.189 Y98.088 E182.89620
G1 X166.988 Y102.259 E183.26212
